; G-Code generated by Simplify3D(TM) Version 2.1.0
; Aug 8, 2014 at 12:26:31 AM
; Settings Summary
;   processName,Process1
;   applyToModels,hilt_switch_only
;   printMaterial,PLA
;   printQuality,Fast
;   extruderName,Primary Extruder
;   extruderToolheadNumber,0
;   extruderDiameter,0.4
;   extruderAutoWidth,0
;   extruderWidth,0.4
;   extrusionMultiplier,0.9
;   extruderUseRetract,1
;   extruderRetractionDistance,1
;   extruderExtraRestartDistance,0
;   extruderRetractionZLift,0
;   extruderRetractionSpeed,1800
;   extruderUseCoasting,0
;   extruderCoastingDistance,0.2
;   extruderUseWipe,0
;   extruderWipeDistance,5
;   primaryExtruder,0
;   layerHeight,0.3
;   topSolidLayers,3
;   bottomSolidLayers,3
;   perimeterOutlines,2
;   printPerimetersInsideOut,1
;   startPointOption,2
;   startPointOriginX,0
;   startPointOriginY,0
;   startPointOriginZ,300
;   sequentialIslands,0
;   spiralVaseMode,0
;   firstLayerHeightRatio,0.9
;   firstLayerUnderspeed,0.5
;   useRaft,0
;   raftLayers,3
;   raftOffset,3
;   raftInfill,85
;   disableRaftBaseLayers,0
;   useSkirt,1
;   skirtLayers,1
;   skirtOutlines,10
;   skirtOffset,6
;   infillExtruder,0
;   externalInfillPattern,Rectilinear
;   infillPercentage,50
;   outlineOverlapPercentage,15
;   minInfillLength,5
;   infillLayerInterval,1
;   randomInfillStartPoint,1
;   infillAngles,45,-45
;   generateSupport,0
;   supportExtruder,0
;   supportInfill,25
;   supportExtraInflation,0
;   supportLayerInterval,1
;   supportHorizontalPartOffset,0.3
;   supportUpperSeparationLayers,1
;   supportLowerSeparationLayers,1
;   supportGridSpacing,4
;   maxOverhangAngle,45
;   supportAngles,0
;   temperatureName,Primary Extruder,Heated Bed
;   temperatureNumber,0,1
;   temperatureSetpointCount,1,1
;   temperatureSetpointLayers,1,1
;   temperatureSetpointTemperatures,200,65
;   temperatureStabilizeAtStartup,1,1
;   temperatureHeatedBed,0,1
;   temperatureRelayBetweenLayers,0,0
;   temperatureRelayBetweenLoops,0,0
;   fanLayers,1,1
;   fanSpeeds,0,100
;   blipFanToFullPower,1
;   adjustSpeedForCooling,1
;   minSpeedLayerTime,15
;   minCoolingSpeedSlowdown,20
;   increaseFanForCooling,0
;   minFanLayerTime,45
;   maxCoolingFanSpeed,100
;   increaseFanForBridging,0
;   bridgingFanSpeed,100
;   use5D,1
;   relativeEdistances,0
;   allowEaxisZeroing,1
;   includeM10123,0
;   stickySupport,1
;   detectArcs,0
;   arcReplaceG2G3,0
;   arcRadialCompensation,1
;   gcodeXoffset,0
;   gcodeYoffset,0
;   gcodeZoffset,0
;   overrideMachineDefinition,1
;   machineTypeOverride,0
;   strokeXoverride,150
;   strokeYoverride,150
;   strokeZoverride,150
;   originOffsetXoverride,0
;   originOffsetYoverride,0
;   originOffsetZoverride,0
;   homeXdirOverride,-1
;   homeYdirOverride,-1
;   homeZdirOverride,-1
;   flipXoverride,1
;   flipYoverride,-1
;   flipZoverride,1
;   startingGcode,G28 ; home all axes,G29 ; bed leveling
;   layerChangeGcode,
;   toolChangeGcode,
;   endingGcode,M104 S0 T0 ; turn off extruder,M140 S0 T1 ; turn off bed,G28 X0 ; home X axis,M84 ; disable motors
;   createX3G,0
;   celebration,0
;   celebrationSong,Random Song
;   postProcessing,
;   defaultSpeed,3600
;   outlineUnderspeed,0.5
;   supportUnderspeed,0.8
;   rapidXYspeed,4800
;   rapidZspeed,1000
;   minBridgingArea,50
;   bridgingExtrusionMultiplier,1
;   bridgingSpeedMultiplier,1
;   filamentDiameter,1.75
;   useMinPrintHeight,0
;   minPrintHeight,0
;   useMaxPrintHeight,0
;   maxPrintHeight,0
;   overlapRemoval,0
;   overlapRemovalPercentage,0.3
;   useDiaphragm,0
;   diaphragmLayerInterval,20
;   robustSlicing,1
;   mergeAllIntoSolid,0
;   onlyRetractWhenCrossingOutline,1
;   retractBetweenLayers,1
;   useRetractionMinTravel,0
;   retractionMinTravel,3
;   useRetractionOozeRate,0
;   retractionOozeRate,100
;   onlyWipeOutlines,1
G90 ; use absolute coordinates
M82 ; absolute extrusion distances
G21 ; set units to millimeters
M106 S0
M140 S65
M190 S65
M104 S200 T0
M109 S200 T0
G28 ; home all axes
G29 ; bed leveling
G92 E0
G1 E-1 F1800
; layer 1, Z = 0.27
T0
; tool H0.3 W0.4
G0 X50.461 Y50.461 F4800
G0 Z0.27 F1000
G1 E0 F540
G92 E0
G1 X51.779 Y49.21 E0.0816 F1800
G1 X53.16 Y48.03 E0.1632
G1 X54.568 Y46.95 E0.2428
G1 X55.595 Y46.231 E0.2991
G1 X56.647 Y45.548 E0.3554
G1 X58.175 Y44.648 E0.4351
G1 X59.787 Y43.809 E0.5167
G1 X61.44 Y43.055 E0.5983
G1 X63.131 Y42.39 E0.6798
G1 X64.813 Y41.827 E0.7595
G1 X66.06 Y41.469 E0.8177
G1 X67.785 Y41.055 E0.8974
G1 X69.571 Y40.724 E0.979
G1 X71.372 Y40.487 E1.0605
G1 X73.184 Y40.344 E1.1421
G1 X75 Y40.297 E1.2237
G1 X76.816 Y40.344 E1.3053
G1 X78.628 Y40.487 E1.3869
G1 X80.429 Y40.724 E1.4684
G1 X82.215 Y41.055 E1.55
G1 X83.94 Y41.469 E1.6297
G1 X85.187 Y41.827 E1.6879
G1 X86.869 Y42.39 E1.7675
G1 X88.559 Y43.055 E1.8491
G1 X90.213 Y43.809 E1.9307
G1 X91.825 Y44.648 E2.0123
G1 X93.353 Y45.548 E2.0919
G1 X94.405 Y46.231 E2.1482
G1 X95.432 Y46.95 E2.2046
G1 X96.84 Y48.03 E2.2842
G1 X98.221 Y49.21 E2.3658
G1 X99.539 Y50.461 E2.4474
G1 X100.79 Y51.779 E2.529
G1 X101.97 Y53.16 E2.6105
G1 X103.076 Y54.602 E2.6921
G1 X104.105 Y56.099 E2.7737
G1 X105.054 Y57.648 E2.8553
G1 X105.9 Y59.207 E2.9349
G1 X106.469 Y60.373 E2.9932
G1 X107.176 Y62 E3.0728
G1 X107.798 Y63.662 E3.1525
G1 X108.198 Y64.895 E3.2107
G1 X108.673 Y66.605 E3.2904
G1 X109.066 Y68.378 E3.3719
G1 X109.366 Y70.17 E3.4535
G1 X109.571 Y71.976 E3.5351
G1 X109.68 Y73.748 E3.6148
G1 X109.702 Y75.062 E3.6738
G1 X109.655 Y76.837 E3.7535
G1 X109.511 Y78.648 E3.8351
G1 X109.273 Y80.449 E3.9167
G1 X108.941 Y82.235 E3.9983
G1 X108.525 Y83.96 E4.078
G1 X108.167 Y85.207 E4.1362
G1 X107.603 Y86.888 E4.2158
G1 X106.937 Y88.578 E4.2974
G1 X106.182 Y90.231 E4.379
G1 X105.342 Y91.842 E4.4606
G1 X104.441 Y93.371 E4.5402
G1 X103.757 Y94.422 E4.5965
G1 X103.037 Y95.448 E4.6528
G1 X101.957 Y96.855 E4.7325
G1 X100.776 Y98.236 E4.8141
G1 X99.524 Y99.553 E4.8957
G1 X98.206 Y100.803 E4.9772
G1 X96.824 Y101.982 E5.0588
G1 X95.415 Y103.062 E5.1385
G1 X94.353 Y103.805 E5.1967
G1 X92.892 Y104.734 E5.2744
G1 X91.769 Y105.382 E5.3327
G1 X90.195 Y106.2 E5.4123
G1 X88.541 Y106.953 E5.4939
G1 X86.85 Y107.617 E5.5755
G1 X85.168 Y108.179 E5.6551
G1 X83.921 Y108.536 E5.7134
G1 X82.195 Y108.949 E5.793
G1 X80.409 Y109.279 E5.8746
G1 X78.607 Y109.515 E5.9562
G1 X76.796 Y109.657 E6.0378
G1 X74.98 Y109.703 E6.1193
G1 X73.163 Y109.655 E6.2009
G1 X71.352 Y109.511 E6.2825
G1 X69.551 Y109.273 E6.3641
G1 X67.765 Y108.941 E6.4456
G1 X66.04 Y108.525 E6.5253
G1 X64.793 Y108.167 E6.5835
G1 X63.112 Y107.603 E6.6632
G1 X61.422 Y106.937 E6.7448
G1 X59.769 Y106.182 E6.8264
G1 X58.158 Y105.342 E6.9079
G1 X56.629 Y104.441 E6.9876
G1 X55.578 Y103.757 E7.0439
G1 X54.552 Y103.037 E7.1002
G1 X53.145 Y101.957 E7.1799
G1 X51.764 Y100.776 E7.2614
G1 X50.447 Y99.524 E7.343
G1 X49.197 Y98.206 E7.4246
G1 X48.018 Y96.823 E7.5062
G1 X46.938 Y95.415 E7.5858
G1 X46.22 Y94.388 E7.6421
G1 X45.538 Y93.336 E7.6984
G1 X44.638 Y91.807 E7.7781
G1 X43.8 Y90.195 E7.8597
G1 X43.047 Y88.541 E7.9413
G1 X42.383 Y86.85 E8.0228
G1 X41.821 Y85.168 E8.1025
G1 X41.464 Y83.921 E8.1607
G1 X41.051 Y82.195 E8.2404
G1 X40.721 Y80.409 E8.322
G1 X40.485 Y78.607 E8.4035
G1 X40.343 Y76.798 E8.485
G1 X40.297 Y74.999 E8.5658
G1 X40.344 Y73.184 E8.6474
G1 X40.487 Y71.372 E8.7289
G1 X40.724 Y69.571 E8.8105
G1 X41.055 Y67.785 E8.8921
G1 X41.469 Y66.06 E8.9718
G1 X41.827 Y64.813 E9.03
G1 X42.39 Y63.131 E9.1096
G1 X43.055 Y61.44 E9.1912
G1 X43.809 Y59.787 E9.2728
G1 X44.648 Y58.175 E9.3544
G1 X45.548 Y56.647 E9.434
G1 X46.231 Y55.595 E9.4903
G1 X46.95 Y54.568 E9.5466
G1 X48.03 Y53.16 E9.6263
G1 X49.21 Y51.779 E9.7079
G1 X50.461 Y50.461 E9.7895
G0 X50.744 Y50.744 F4800
G92 E0
G1 X52.047 Y49.508 E0.0806 F1800
G1 X53.412 Y48.341 E0.1613
G1 X54.805 Y47.273 E0.2401
G1 X55.819 Y46.563 E0.2957
G1 X56.857 Y45.888 E0.3513
G1 X58.369 Y44.998 E0.4301
G1 X59.962 Y44.168 E0.5107
G1 X61.597 Y43.424 E0.5914
G1 X63.268 Y42.766 E0.672
G1 X64.931 Y42.209 E0.7508
G1 X66.161 Y41.856 E0.8082
G1 X67.868 Y41.446 E0.887
G1 X69.634 Y41.119 E0.9677
G1 X71.414 Y40.885 E1.0483
G1 X73.205 Y40.744 E1.1289
G1 X75 Y40.697 E1.2096
G1 X76.795 Y40.744 E1.2902
G1 X78.586 Y40.885 E1.3709
G1 X80.366 Y41.119 E1.4515
G1 X82.132 Y41.446 E1.5321
G1 X83.839 Y41.856 E1.6109
G1 X85.069 Y42.209 E1.6684
G1 X86.732 Y42.766 E1.7472
G1 X88.403 Y43.424 E1.8278
G1 X90.038 Y44.168 E1.9084
G1 X91.631 Y44.998 E1.9891
G1 X93.143 Y45.888 E2.0679
G1 X94.181 Y46.563 E2.1235
G1 X95.195 Y47.273 E2.1791
G1 X96.588 Y48.341 E2.2579
G1 X97.953 Y49.508 E2.3385
G1 X99.256 Y50.744 E2.4192
G1 X100.492 Y52.047 E2.4998
G1 X101.659 Y53.412 E2.5804
G1 X102.752 Y54.837 E2.6611
G1 X103.769 Y56.317 E2.7417
G1 X104.707 Y57.848 E2.8223
G1 X105.545 Y59.39 E2.9011
G1 X106.106 Y60.541 E2.9586
G1 X106.805 Y62.15 E3.0374
G1 X107.42 Y63.793 E3.1162
G1 X107.815 Y65.01 E3.1736
G1 X108.284 Y66.701 E3.2524
G1 X108.673 Y68.455 E3.3331
G1 X108.969 Y70.226 E3.4137
G1 X109.173 Y72.01 E3.4943
G1 X109.28 Y73.764 E3.5732
G1 X109.302 Y75.06 E3.6314
G1 X109.255 Y76.815 E3.7103
G1 X109.113 Y78.606 E3.7909
G1 X108.878 Y80.386 E3.8715
G1 X108.549 Y82.151 E3.9522
G1 X108.139 Y83.858 E4.031
G1 X107.785 Y85.088 E4.0884
G1 X107.227 Y86.751 E4.1672
G1 X106.568 Y88.422 E4.2479
G1 X105.823 Y90.056 E4.3285
G1 X104.992 Y91.648 E4.4091
G1 X104.101 Y93.16 E4.4879
G1 X103.426 Y94.198 E4.5435
G1 X102.715 Y95.212 E4.5991
G1 X101.646 Y96.603 E4.6779
G1 X100.479 Y97.968 E4.7586
G1 X99.242 Y99.27 E4.8392
G1 X97.938 Y100.506 E4.9199
G1 X96.572 Y101.671 E5.0005
G1 X95.179 Y102.739 E5.0793
G1 X94.131 Y103.472 E5.1367
G1 X92.685 Y104.392 E5.2137
G1 X91.576 Y105.031 E5.2711
G1 X90.019 Y105.84 E5.3499
G1 X88.385 Y106.584 E5.4306
G1 X86.713 Y107.241 E5.5112
G1 X85.049 Y107.797 E5.59
G1 X83.819 Y108.149 E5.6474
G1 X82.112 Y108.558 E5.7262
G1 X80.346 Y108.884 E5.8069
G1 X78.566 Y109.117 E5.8875
G1 X76.775 Y109.257 E5.9681
G1 X74.98 Y109.303 E6.0488
G1 X73.185 Y109.255 E6.1294
G1 X71.394 Y109.113 E6.2101
G1 X69.614 Y108.878 E6.2907
G1 X67.849 Y108.549 E6.3713
G1 X66.142 Y108.139 E6.4501
G1 X64.912 Y107.785 E6.5076
G1 X63.249 Y107.227 E6.5864
G1 X61.578 Y106.568 E6.667
G1 X59.944 Y105.823 E6.7476
G1 X58.352 Y104.992 E6.8283
G1 X56.84 Y104.101 E6.9071
G1 X55.802 Y103.426 E6.9627
G1 X54.788 Y102.715 E7.0183
G1 X53.397 Y101.646 E7.0971
G1 X52.032 Y100.479 E7.1777
G1 X50.73 Y99.242 E7.2583
G1 X49.494 Y97.938 E7.339
G1 X48.329 Y96.572 E7.4196
G1 X47.261 Y95.179 E7.4984
G1 X46.552 Y94.164 E7.554
G1 X45.878 Y93.126 E7.6096
G1 X44.988 Y91.613 E7.6884
G1 X44.16 Y90.019 E7.7691
G1 X43.416 Y88.385 E7.8497
G1 X42.759 Y86.713 E7.9303
G1 X42.203 Y85.049 E8.0091
G1 X41.851 Y83.819 E8.0666
G1 X41.442 Y82.112 E8.1454
G1 X41.116 Y80.346 E8.226
G1 X40.883 Y78.566 E8.3066
G1 X40.743 Y76.777 E8.3872
G1 X40.697 Y74.999 E8.4671
G1 X40.744 Y73.205 E8.5477
G1 X40.885 Y71.414 E8.6283
G1 X41.119 Y69.634 E8.7089
G1 X41.446 Y67.868 E8.7896
G1 X41.856 Y66.161 E8.8684
G1 X42.209 Y64.931 E8.9258
G1 X42.766 Y63.268 E9.0046
G1 X43.424 Y61.597 E9.0852
G1 X44.168 Y59.962 E9.1659
G1 X44.998 Y58.369 E9.2465
G1 X45.888 Y56.857 E9.3253
G1 X46.563 Y55.819 E9.3809
G1 X47.273 Y54.805 E9.4365
G1 X48.341 Y53.412 E9.5153
G1 X49.508 Y52.047 E9.5959
G1 X50.744 Y50.744 E9.6766
G0 X51.027 Y51.027 F4800
G92 E0
G1 X52.315 Y49.805 E0.0797 F1800
G1 X53.664 Y48.652 E0.1594
G1 X55.041 Y47.596 E0.2373
G1 X56.043 Y46.895 E0.2922
G1 X57.068 Y46.229 E0.3471
G1 X58.563 Y45.348 E0.4251
G1 X60.138 Y44.528 E0.5047
G1 X61.753 Y43.792 E0.5845
G1 X63.404 Y43.142 E0.6641
G1 X65.05 Y42.591 E0.7421
G1 X66.263 Y42.243 E0.7987
G1 X67.951 Y41.838 E0.8767
G1 X69.696 Y41.514 E0.9564
G1 X71.456 Y41.283 E1.0361
G1 X73.226 Y41.143 E1.1158
G1 X75 Y41.097 E1.1955
G1 X76.774 Y41.143 E1.2752
G1 X78.544 Y41.283 E1.3549
G1 X80.304 Y41.514 E1.4346
G1 X82.049 Y41.838 E1.5142
G1 X83.737 Y42.243 E1.5922
G1 X84.95 Y42.591 E1.6489
G1 X86.595 Y43.142 E1.7268
G1 X88.247 Y43.792 E1.8065
G1 X89.862 Y44.528 E1.8862
G1 X91.437 Y45.348 E1.9659
G1 X92.932 Y46.229 E2.0438
G1 X93.957 Y46.895 E2.0987
G1 X94.959 Y47.596 E2.1536
G1 X96.336 Y48.652 E2.2315
G1 X97.685 Y49.805 E2.3112
G1 X98.973 Y51.027 E2.3909
G1 X100.195 Y52.315 E2.4706
G1 X101.348 Y53.664 E2.5503
G1 X102.428 Y55.072 E2.63
G1 X103.434 Y56.535 E2.7097
G1 X104.361 Y58.048 E2.7894
G1 X105.189 Y59.574 E2.8673
G1 X105.742 Y60.708 E2.924
G1 X106.434 Y62.3 E3.002
G1 X107.042 Y63.925 E3.0799
G1 X107.432 Y65.125 E3.1365
G1 X107.896 Y66.798 E3.2145
G1 X108.28 Y68.531 E3.2942
G1 X108.573 Y70.282 E3.3739
G1 X108.774 Y72.045 E3.4536
G1 X108.88 Y73.779 E3.5316
G1 X108.902 Y75.058 E3.589
G1 X108.855 Y76.794 E3.667
G1 X108.715 Y78.564 E3.7467
G1 X108.482 Y80.323 E3.8264
G1 X108.158 Y82.068 E3.9061
G1 X107.752 Y83.756 E3.984
G1 X107.403 Y84.969 E4.0407
G1 X106.851 Y86.614 E4.1186
G1 X106.2 Y88.265 E4.1983
G1 X105.463 Y89.88 E4.278
G1 X104.642 Y91.454 E4.3577
G1 X103.761 Y92.949 E4.4356
G1 X103.094 Y93.974 E4.4905
G1 X102.392 Y94.975 E4.5454
G1 X101.335 Y96.351 E4.6234
G1 X100.182 Y97.7 E4.7031
G1 X98.959 Y98.987 E4.7828
G1 X97.671 Y100.208 E4.8625
G1 X96.32 Y101.36 E4.9422
G1 X94.943 Y102.416 E5.0201
G1 X93.909 Y103.139 E5.0767
G1 X92.477 Y104.05 E5.1529
G1 X91.384 Y104.68 E5.2096
G1 X89.844 Y105.48 E5.2875
G1 X88.228 Y106.216 E5.3672
G1 X86.577 Y106.865 E5.4469
G1 X84.931 Y107.415 E5.5248
G1 X83.717 Y107.762 E5.5815
G1 X82.029 Y108.166 E5.6594
G1 X80.284 Y108.489 E5.7391
G1 X78.524 Y108.719 E5.8188
G1 X76.754 Y108.858 E5.8985
G1 X74.98 Y108.903 E5.9782
G1 X73.206 Y108.855 E6.0579
G1 X71.436 Y108.715 E6.1376
G1 X69.677 Y108.482 E6.2173
G1 X67.932 Y108.158 E6.297
G1 X66.244 Y107.752 E6.3749
G1 X65.031 Y107.403 E6.4316
G1 X63.386 Y106.851 E6.5095
G1 X61.735 Y106.2 E6.5892
G1 X60.12 Y105.463 E6.6689
G1 X58.546 Y104.642 E6.7486
G1 X57.051 Y103.761 E6.8266
G1 X56.026 Y103.094 E6.8815
G1 X55.025 Y102.392 E6.9364
G1 X53.649 Y101.335 E7.0143
G1 X52.3 Y100.182 E7.094
G1 X51.013 Y98.959 E7.1737
G1 X49.792 Y97.671 E7.2534
G1 X48.64 Y96.32 E7.3331
G1 X47.584 Y94.943 E7.411
G1 X46.883 Y93.941 E7.4659
G1 X46.218 Y92.915 E7.5208
G1 X45.338 Y91.419 E7.5987
G1 X44.52 Y89.844 E7.6784
G1 X43.784 Y88.228 E7.7581
G1 X43.135 Y86.577 E7.8378
G1 X42.585 Y84.931 E7.9157
G1 X42.238 Y83.717 E7.9724
G1 X41.834 Y82.029 E8.0504
G1 X41.511 Y80.284 E8.1301
G1 X41.281 Y78.524 E8.2097
G1 X41.143 Y76.756 E8.2894
G1 X41.097 Y74.999 E8.3683
G1 X41.143 Y73.226 E8.4479
G1 X41.283 Y71.456 E8.5277
G1 X41.514 Y69.696 E8.6073
G1 X41.838 Y67.951 E8.687
G1 X42.243 Y66.263 E8.765
G1 X42.591 Y65.05 E8.8217
G1 X43.142 Y63.404 E8.8996
G1 X43.792 Y61.753 E8.9793
G1 X44.528 Y60.138 E9.059
G1 X45.348 Y58.563 E9.1387
G1 X46.229 Y57.068 E9.2166
G1 X46.895 Y56.043 E9.2715
G1 X47.596 Y55.041 E9.3264
G1 X48.652 Y53.664 E9.4043
G1 X49.805 Y52.315 E9.484
G1 X51.027 Y51.027 E9.5637
G0 X51.31 Y51.31 F4800
G92 E0
G1 X52.582 Y50.102 E0.0788 F1800
G1 X53.916 Y48.963 E0.1575
G1 X55.278 Y47.918 E0.2346
G1 X56.266 Y47.226 E0.2888
G1 X57.278 Y46.569 E0.343
G1 X58.757 Y45.698 E0.42
G1 X60.313 Y44.888 E0.4988
G1 X61.91 Y44.16 E0.5776
G1 X63.541 Y43.518 E0.6563
G1 X65.169 Y42.973 E0.7334
G1 X66.365 Y42.63 E0.7893
G1 X68.035 Y42.229 E0.8663
G1 X69.759 Y41.91 E0.9451
G1 X71.498 Y41.681 E1.0238
G1 X73.247 Y41.543 E1.1026
G1 X75 Y41.497 E1.1814
G1 X76.753 Y41.543 E1.2601
G1 X78.502 Y41.681 E1.3389
G1 X80.241 Y41.91 E1.4176
G1 X81.965 Y42.229 E1.4964
G1 X83.635 Y42.63 E1.5735
G1 X84.831 Y42.973 E1.6293
G1 X86.459 Y43.518 E1.7064
G1 X88.09 Y44.16 E1.7852
G1 X89.687 Y44.888 E1.8639
G1 X91.243 Y45.698 E1.9427
G1 X92.722 Y46.569 E2.0198
G1 X93.734 Y47.226 E2.0739
G1 X94.722 Y47.918 E2.1281
G1 X96.084 Y48.963 E2.2052
G1 X97.418 Y50.102 E2.2839
G1 X98.69 Y51.31 E2.3627
G1 X99.898 Y52.582 E2.4415
G1 X101.037 Y53.916 E2.5202
G1 X102.104 Y55.307 E2.599
G1 X103.098 Y56.753 E2.6778
G1 X104.014 Y58.248 E2.7565
G1 X104.833 Y59.757 E2.8336
G1 X105.379 Y60.876 E2.8895
G1 X106.063 Y62.45 E2.9665
G1 X106.664 Y64.057 E3.0436
G1 X107.049 Y65.241 E3.0995
G1 X107.508 Y66.895 E3.1765
G1 X107.887 Y68.607 E3.2553
G1 X108.177 Y70.337 E3.3341
G1 X108.375 Y72.08 E3.4128
G1 X108.48 Y73.795 E3.49
G1 X108.502 Y75.056 E3.5466
G1 X108.456 Y76.773 E3.6237
G1 X108.317 Y78.522 E3.7025
