; G-Code generated by Simplify3D(TM) Version 2.1.0
; Jun 25, 2014 at 10:15:11 PM
; Settings Summary
;   processName,Process1
;   applyToModels,hilt
;   printMaterial,PLA
;   printQuality,Medium
;   extruderName,Primary Extruder
;   extruderToolheadNumber,0
;   extruderDiameter,0.4
;   extruderAutoWidth,0
;   extruderWidth,0.4
;   extrusionMultiplier,0.9
;   extruderUseRetract,1
;   extruderRetractionDistance,1
;   extruderExtraRestartDistance,0
;   extruderRetractionZLift,0
;   extruderRetractionSpeed,1800
;   extruderUseCoasting,0
;   extruderCoastingDistance,0.2
;   extruderUseWipe,0
;   extruderWipeDistance,5
;   primaryExtruder,0
;   layerHeight,0.2
;   topSolidLayers,3
;   bottomSolidLayers,3
;   perimeterOutlines,2
;   printPerimetersInsideOut,0
;   startPointOption,1
;   startPointOriginX,0
;   startPointOriginY,0
;   startPointOriginZ,300
;   sequentialIslands,0
;   spiralVaseMode,0
;   firstLayerHeightRatio,0.9
;   firstLayerUnderspeed,0.5
;   useRaft,0
;   raftLayers,3
;   raftOffset,5
;   raftInfill,80
;   disableRaftBaseLayers,0
;   useSkirt,1
;   skirtLayers,1
;   skirtOutlines,10
;   skirtOffset,4
;   infillExtruder,0
;   externalInfillPattern,Rectilinear
;   infillPercentage,20
;   outlineOverlapPercentage,15
;   minInfillLength,5
;   infillLayerInterval,1
;   randomInfillStartPoint,1
;   infillAngles,45,-45
;   generateSupport,0
;   supportExtruder,0
;   supportInfill,30
;   supportExtraInflation,0
;   supportLayerInterval,1
;   supportHorizontalPartOffset,0.3
;   supportUpperSeparationLayers,1
;   supportLowerSeparationLayers,1
;   supportGridSpacing,4
;   maxOverhangAngle,45
;   supportAngles,0
;   temperatureName,Primary Extruder,Heated Bed
;   temperatureNumber,0,1
;   temperatureSetpointCount,1,1
;   temperatureSetpointLayers,1,1
;   temperatureSetpointTemperatures,215,65
;   temperatureStabilizeAtStartup,1,1
;   temperatureHeatedBed,0,1
;   temperatureRelayBetweenLayers,0,0
;   temperatureRelayBetweenLoops,0,0
;   fanLayers,1,1
;   fanSpeeds,0,100
;   blipFanToFullPower,1
;   adjustSpeedForCooling,1
;   minSpeedLayerTime,15
;   minCoolingSpeedSlowdown,20
;   increaseFanForCooling,0
;   minFanLayerTime,45
;   maxCoolingFanSpeed,100
;   increaseFanForBridging,0
;   bridgingFanSpeed,100
;   use5D,1
;   relativeEdistances,0
;   allowEaxisZeroing,1
;   includeM10123,0
;   stickySupport,1
;   detectArcs,0
;   arcReplaceG2G3,0
;   arcRadialCompensation,1
;   gcodeXoffset,0
;   gcodeYoffset,0
;   gcodeZoffset,0
;   overrideMachineDefinition,1
;   machineTypeOverride,0
;   strokeXoverride,150
;   strokeYoverride,150
;   strokeZoverride,150
;   originOffsetXoverride,0
;   originOffsetYoverride,0
;   originOffsetZoverride,0
;   homeXdirOverride,-1
;   homeYdirOverride,-1
;   homeZdirOverride,-1
;   flipXoverride,1
;   flipYoverride,-1
;   flipZoverride,1
;   startingGcode,G28 ; home all axes,G29 ; bed leveling
;   layerChangeGcode,
;   toolChangeGcode,
;   endingGcode,M104 S0 T0 ; turn off extruder,M140 S0 T1 ; turn off bed,G28 X0 ; home X axis,M84 ; disable motors,M106 S0 ; fans off
;   createX3G,0
;   celebration,0
;   celebrationSong,Random Song
;   postProcessing,
;   defaultSpeed,2800
;   outlineUnderspeed,0.5
;   supportUnderspeed,0.8
;   rapidXYspeed,4800
;   rapidZspeed,1000
;   minBridgingArea,50
;   bridgingExtrusionMultiplier,1
;   bridgingSpeedMultiplier,1
;   filamentDiameter,1.75
;   useMinPrintHeight,0
;   minPrintHeight,0
;   useMaxPrintHeight,0
;   maxPrintHeight,0
;   overlapRemoval,0
;   overlapRemovalPercentage,0.3
;   useDiaphragm,0
;   diaphragmLayerInterval,20
;   robustSlicing,1
;   mergeAllIntoSolid,0
;   onlyRetractWhenCrossingOutline,1
;   retractBetweenLayers,1
;   useRetractionMinTravel,0
;   retractionMinTravel,3
;   useRetractionOozeRate,0
;   retractionOozeRate,100
;   onlyWipeOutlines,1
G90 ; use absolute coordinates
M82 ; absolute extrusion distances
G21 ; set units to millimeters
M106 S0
M140 S65
M190 S65
M104 S215 T0
M109 S215 T0
G28 ; home all axes
G29 ; bed leveling
G92 E0
G1 E-1 F1800
; layer 1, Z = 0.18
T0
; tool H0.2 W0.4
G0 X50.781 Y51.564 F4800
G0 Z0.18 F1000
G1 E0 F540
G92 E0
G1 X52.015 Y50.351 E0.0518 F1400
G1 X53.336 Y49.182 E0.1046
G1 X54.691 Y48.105 E0.1564
G1 X55.67 Y47.394 E0.1926
G1 X56.673 Y46.717 E0.2289
G1 X58.149 Y45.813 E0.2807
G1 X59.699 Y44.971 E0.3335
G1 X61.292 Y44.211 E0.3863
G1 X62.922 Y43.536 E0.4391
G1 X64.585 Y42.947 E0.4919
G1 X66.245 Y42.455 E0.5437
G1 X67.452 Y42.154 E0.581
G1 X69.148 Y41.809 E0.6328
G1 X70.893 Y41.549 E0.6856
G1 X72.649 Y41.379 E0.7384
G1 X74.378 Y41.304 E0.7902
G1 X75.622 Y41.304 E0.8275
G1 X77.351 Y41.379 E0.8793
G1 X79.107 Y41.549 E0.9321
G1 X80.852 Y41.809 E0.9849
G1 X82.581 Y42.161 E1.0377
G1 X84.29 Y42.603 E1.0906
G1 X85.972 Y43.134 E1.1434
G1 X87.625 Y43.751 E1.1962
G1 X89.212 Y44.441 E1.248
G1 X90.331 Y44.987 E1.2852
G1 X91.851 Y45.813 E1.337
G1 X93.356 Y46.735 E1.3899
G1 X94.81 Y47.734 E1.4427
G1 X96.21 Y48.808 E1.4955
G1 X97.526 Y49.932 E1.5473
G1 X98.436 Y50.781 E1.5845
G1 X99.649 Y52.015 E1.6363
G1 X100.818 Y53.336 E1.6892
G1 X101.895 Y54.691 E1.741
G1 X102.627 Y55.698 E1.7782
G1 X103.581 Y57.14 E1.83
G1 X104.477 Y58.66 E1.8828
G1 X105.292 Y60.226 E1.9356
G1 X106.009 Y61.801 E1.9874
G1 X106.475 Y62.954 E2.0247
G1 X107.053 Y64.585 E2.0765
G1 X107.554 Y66.277 E2.1293
G1 X107.966 Y67.993 E2.1821
G1 X108.288 Y69.728 E2.2349
G1 X108.518 Y71.477 E2.2878
G1 X108.654 Y73.202 E2.3395
G1 X108.696 Y74.413 E2.3758
G1 X108.696 Y75.633 E2.4123
G1 X108.62 Y77.362 E2.4641
G1 X108.45 Y79.118 E2.5169
G1 X108.189 Y80.863 E2.5698
G1 X107.836 Y82.592 E2.6226
G1 X107.394 Y84.3 E2.6754
G1 X106.863 Y85.982 E2.7282
G1 X106.245 Y87.635 E2.781
G1 X105.554 Y89.222 E2.8328
G1 X105.008 Y90.34 E2.8701
G1 X104.182 Y91.86 E2.9219
G1 X103.26 Y93.365 E2.9747
G1 X102.26 Y94.819 E3.0275
G1 X101.185 Y96.218 E3.0803
G1 X100.039 Y97.559 E3.1331
G1 X98.847 Y98.814 E3.185
G1 X97.952 Y99.678 E3.2222
G1 X96.655 Y100.825 E3.274
G1 X95.274 Y101.923 E3.3268
G1 X93.837 Y102.947 E3.3796
G1 X92.378 Y103.876 E3.4314
G1 X91.3 Y104.498 E3.4687
G1 X89.765 Y105.296 E3.5205
G1 X88.19 Y106.014 E3.5723
G1 X87.036 Y106.479 E3.6095
G1 X85.405 Y107.056 E3.6613
G1 X83.712 Y107.557 E3.7142
G1 X81.997 Y107.968 E3.767
G1 X80.262 Y108.289 E3.8198
G1 X78.546 Y108.515 E3.8716
G1 X77.307 Y108.623 E3.9088
G1 X75.612 Y108.696 E3.9596
G1 X74.367 Y108.696 E3.9969
G1 X72.638 Y108.62 E4.0487
G1 X70.882 Y108.45 E4.1015
G1 X69.137 Y108.189 E4.1543
G1 X67.408 Y107.836 E4.2071
G1 X65.7 Y107.394 E4.2599
G1 X64.018 Y106.863 E4.3127
G1 X62.365 Y106.245 E4.3656
G1 X60.778 Y105.554 E4.4174
G1 X59.66 Y105.008 E4.4546
G1 X58.14 Y104.182 E4.5064
G1 X56.635 Y103.26 E4.5592
G1 X55.181 Y102.26 E4.6121
G1 X53.782 Y101.185 E4.6649
G1 X52.467 Y100.061 E4.7167
G1 X51.557 Y99.212 E4.7539
G1 X50.344 Y97.977 E4.8057
G1 X49.175 Y96.655 E4.8585
G1 X48.098 Y95.301 E4.9103
G1 X47.388 Y94.322 E4.9466
G1 X46.711 Y93.318 E4.9828
G1 X45.807 Y91.842 E5.0346
G1 X44.966 Y90.291 E5.0874
G1 X44.207 Y88.698 E5.1402
G1 X43.532 Y87.068 E5.193
G1 X42.955 Y85.437 E5.2448
G1 X42.592 Y84.246 E5.2821
G1 X42.159 Y82.571 E5.3339
G1 X41.808 Y80.842 E5.3867
G1 X41.547 Y79.097 E5.4395
G1 X41.382 Y77.374 E5.4913
G1 X41.317 Y76.133 E5.5285
G1 X41.302 Y74.411 E5.5801
G1 X41.379 Y72.649 E5.6329
G1 X41.549 Y70.893 E5.6857
G1 X41.809 Y69.148 E5.7385
G1 X42.161 Y67.419 E5.7913
G1 X42.603 Y65.71 E5.8442
G1 X43.134 Y64.027 E5.897
G1 X43.751 Y62.375 E5.9498
G1 X44.441 Y60.788 E6.0016
G1 X44.987 Y59.669 E6.0388
G1 X45.813 Y58.149 E6.0906
G1 X46.735 Y56.644 E6.1435
G1 X47.734 Y55.19 E6.1963
G1 X48.808 Y53.79 E6.2491
G1 X49.932 Y52.474 E6.3009
G1 X50.781 Y51.564 E6.3381
G0 X51.067 Y51.843 F4800
G92 E0
G1 X52.288 Y50.644 E0.0512 F1400
G1 X53.594 Y49.489 E0.1034
G1 X54.933 Y48.423 E0.1546
G1 X55.899 Y47.721 E0.1904
G1 X56.889 Y47.053 E0.2261
G1 X58.349 Y46.159 E0.2774
G1 X59.881 Y45.327 E0.3296
G1 X61.455 Y44.577 E0.3818
G1 X63.065 Y43.909 E0.434
G1 X64.709 Y43.327 E0.4861
G1 X66.35 Y42.841 E0.5374
G1 X67.54 Y42.545 E0.5741
G1 X69.217 Y42.203 E0.6253
G1 X70.941 Y41.946 E0.6775
G1 X72.677 Y41.779 E0.7297
G1 X74.386 Y41.704 E0.7809
G1 X75.614 Y41.704 E0.8177
G1 X77.323 Y41.779 E0.8689
G1 X79.059 Y41.946 E0.9211
G1 X80.783 Y42.203 E0.9733
G1 X82.491 Y42.551 E1.0254
G1 X84.18 Y42.988 E1.0776
G1 X85.842 Y43.512 E1.1298
G1 X87.475 Y44.122 E1.182
G1 X89.045 Y44.805 E1.2332
G1 X90.147 Y45.343 E1.27
G1 X91.651 Y46.159 E1.3212
G1 X93.138 Y47.07 E1.3734
G1 X94.575 Y48.058 E1.4256
G1 X95.958 Y49.119 E1.4778
G1 X97.259 Y50.23 E1.529
G1 X98.157 Y51.067 E1.5657
G1 X99.356 Y52.288 E1.6169
G1 X100.511 Y53.594 E1.6691
G1 X101.577 Y54.933 E1.7204
G1 X102.298 Y55.926 E1.7571
G1 X103.242 Y57.352 E1.8083
G1 X104.127 Y58.854 E1.8605
G1 X104.932 Y60.401 E1.9127
G1 X105.642 Y61.958 E1.9639
G1 X106.101 Y63.096 E2.0006
G1 X106.673 Y64.709 E2.0519
G1 X107.168 Y66.381 E2.1041
G1 X107.575 Y68.076 E2.1563
G1 X107.892 Y69.79 E2.2084
G1 X108.12 Y71.519 E2.2606
G1 X108.254 Y73.225 E2.3118
G1 X108.296 Y74.419 E2.3476
G1 X108.296 Y75.624 E2.3837
G1 X108.221 Y77.334 E2.4349
G1 X108.053 Y79.069 E2.4871
G1 X107.795 Y80.793 E2.5393
G1 X107.447 Y82.502 E2.5915
G1 X107.009 Y84.19 E2.6437
G1 X106.485 Y85.852 E2.6959
G1 X105.874 Y87.485 E2.7481
G1 X105.191 Y89.054 E2.7993
G1 X104.653 Y90.157 E2.836
G1 X103.836 Y91.66 E2.8872
G1 X102.924 Y93.147 E2.9394
G1 X101.936 Y94.583 E2.9916
G1 X100.874 Y95.966 E3.0438
G1 X99.742 Y97.291 E3.096
G1 X98.563 Y98.532 E3.1472
G1 X97.68 Y99.384 E3.1839
G1 X96.398 Y100.518 E3.2352
G1 X95.034 Y101.603 E3.2874
G1 X93.614 Y102.615 E3.3396
G1 X92.17 Y103.534 E3.3908
G1 X91.108 Y104.147 E3.4275
G1 X89.59 Y104.937 E3.4787
G1 X88.032 Y105.646 E3.53
G1 X86.894 Y106.105 E3.5667
G1 X85.281 Y106.676 E3.6179
G1 X83.609 Y107.17 E3.6701
G1 X81.914 Y107.577 E3.7223
G1 X80.199 Y107.894 E3.7745
G1 X78.503 Y108.117 E3.8257
G1 X77.28 Y108.223 E3.8624
G1 X75.603 Y108.296 E3.9127
G1 X74.376 Y108.296 E3.9494
G1 X72.666 Y108.221 E4.0006
G1 X70.931 Y108.053 E4.0528
G1 X69.207 Y107.795 E4.105
G1 X67.498 Y107.447 E4.1572
G1 X65.81 Y107.01 E4.2094
G1 X64.148 Y106.485 E4.2616
G1 X62.515 Y105.874 E4.3138
G1 X60.946 Y105.191 E4.365
G1 X59.843 Y104.653 E4.4017
G1 X58.34 Y103.836 E4.453
G1 X56.853 Y102.924 E4.5052
G1 X55.417 Y101.936 E4.5573
G1 X54.034 Y100.874 E4.6095
G1 X52.733 Y99.763 E4.6607
G1 X51.836 Y98.925 E4.6975
G1 X50.637 Y97.705 E4.7487
G1 X49.482 Y96.398 E4.8009
G1 X48.417 Y95.059 E4.8521
G1 X47.715 Y94.092 E4.8879
G1 X47.048 Y93.102 E4.9236
G1 X46.154 Y91.642 E4.9749
G1 X45.322 Y90.11 E5.0271
G1 X44.572 Y88.536 E5.0792
G1 X43.906 Y86.925 E5.1314
G1 X43.335 Y85.312 E5.1827
G1 X42.977 Y84.138 E5.2194
G1 X42.549 Y82.481 E5.2706
G1 X42.202 Y80.772 E5.3228
G1 X41.945 Y79.048 E5.375
G1 X41.781 Y77.345 E5.4262
G1 X41.717 Y76.12 E5.4629
G1 X41.702 Y74.418 E5.5139
G1 X41.779 Y72.677 E5.566
G1 X41.946 Y70.941 E5.6182
G1 X42.203 Y69.217 E5.6704
G1 X42.551 Y67.509 E5.7226
G1 X42.988 Y65.82 E5.7748
G1 X43.512 Y64.158 E5.827
G1 X44.122 Y62.525 E5.8792
G1 X44.805 Y60.955 E5.9304
G1 X45.343 Y59.853 E5.9671
G1 X46.159 Y58.349 E6.0184
G1 X47.07 Y56.862 E6.0706
G1 X48.058 Y55.425 E6.1227
G1 X49.119 Y54.042 E6.1749
G1 X50.23 Y52.741 E6.2262
G1 X51.067 Y51.843 E6.2629
G0 X51.354 Y52.123 F4800
G92 E0
G1 X52.561 Y50.937 E0.0506 F1400
G1 X53.851 Y49.795 E0.1022
G1 X55.175 Y48.742 E0.1529
G1 X56.129 Y48.049 E0.1881
G1 X57.106 Y47.39 E0.2234
G1 X58.549 Y46.506 E0.2741
G1 X60.063 Y45.684 E0.3257
G1 X61.618 Y44.942 E0.3772
G1 X63.209 Y44.283 E0.4288
G1 X64.832 Y43.708 E0.4803
G1 X66.455 Y43.227 E0.531
G1 X67.629 Y42.935 E0.5672
G1 X69.287 Y42.597 E0.6179
G1 X70.99 Y42.343 E0.6694
G1 X72.705 Y42.178 E0.721
G1 X74.395 Y42.104 E0.7716
G1 X75.605 Y42.104 E0.8078
G1 X77.295 Y42.178 E0.8585
G1 X79.01 Y42.343 E0.91
G1 X80.713 Y42.597 E0.9616
G1 X82.401 Y42.941 E1.0132
G1 X84.069 Y43.372 E1.0647
G1 X85.712 Y43.89 E1.1163
G1 X87.325 Y44.493 E1.1679
G1 X88.877 Y45.168 E1.2185
G1 X89.964 Y45.698 E1.2547
G1 X91.451 Y46.506 E1.3054
G1 X92.92 Y47.406 E1.3569
G1 X94.34 Y48.381 E1.4085
G1 X95.706 Y49.43 E1.46
G1 X96.993 Y50.529 E1.5107
G1 X97.877 Y51.354 E1.5469
G1 X99.063 Y52.561 E1.5976
G1 X100.205 Y53.851 E1.6491
G1 X101.258 Y55.175 E1.6998
G1 X101.969 Y56.154 E1.736
G1 X102.903 Y57.564 E1.7866
G1 X103.777 Y59.048 E1.8382
G1 X104.572 Y60.576 E1.8898
G1 X105.274 Y62.116 E1.9404
G1 X105.727 Y63.238 E1.9766
G1 X106.292 Y64.832 E2.0273
G1 X106.781 Y66.484 E2.0788
G1 X107.183 Y68.159 E2.1304
G1 X107.497 Y69.853 E2.1819
G1 X107.722 Y71.561 E2.2335
G1 X107.855 Y73.247 E2.2842
G1 X107.896 Y74.426 E2.3195
G1 X107.896 Y75.615 E2.355
G1 X107.821 Y77.306 E2.4057
G1 X107.656 Y79.02 E2.4573
G1 X107.401 Y80.723 E2.5088
G1 X107.057 Y82.411 E2.5604
G1 X106.625 Y84.079 E2.612
G1 X106.106 Y85.722 E2.6635
G1 X105.503 Y87.335 E2.7151
G1 X104.828 Y88.886 E2.7657
G1 X104.297 Y89.973 E2.8019
G1 X103.489 Y91.46 E2.8526
G1 X102.589 Y92.929 E2.9042
G1 X101.612 Y94.348 E2.9557
G1 X100.564 Y95.714 E3.0073
G1 X99.444 Y97.024 E3.0588
G1 X98.279 Y98.251 E3.1095
G1 X97.409 Y99.091 E3.1457
G1 X96.141 Y100.211 E3.1963
G1 X94.793 Y101.283 E3.2479
G1 X93.39 Y102.283 E3.2995
G1 X91.963 Y103.192 E3.3501
G1 X90.915 Y103.796 E3.3863
G1 X89.414 Y104.577 E3.437
G1 X87.874 Y105.278 E3.4876
G1 X86.753 Y105.731 E3.5238
G1 X85.158 Y106.295 E3.5745
G1 X83.506 Y106.784 E3.626
G1 X81.831 Y107.185 E3.6776
G1 X80.137 Y107.499 E3.7292
G1 X78.459 Y107.719 E3.7798
G1 X77.254 Y107.824 E3.816
G1 X75.595 Y107.896 E3.8657
G1 X74.385 Y107.896 E3.902
G1 X72.694 Y107.821 E3.9526
G1 X70.98 Y107.656 E4.0042
G1 X69.277 Y107.401 E4.0557
G1 X67.589 Y107.057 E4.1073
G1 X65.921 Y106.625 E4.1589
G1 X64.278 Y106.106 E4.2104
G1 X62.665 Y105.503 E4.262
G1 X61.114 Y104.828 E4.3126
G1 X60.027 Y104.297 E4.3488
G1 X58.54 Y103.489 E4.3995
G1 X57.071 Y102.588 E4.4511
G1 X55.652 Y101.612 E4.5026
G1 X54.286 Y100.564 E4.5542
G1 X53 Y99.464 E4.6048
G1 X52.115 Y98.639 E4.641
G1 X50.93 Y97.432 E4.6917
G1 X49.789 Y96.141 E4.7433
G1 X48.736 Y94.817 E4.7939
G1 X48.043 Y93.863 E4.8292
G1 X47.384 Y92.885 E4.8645
G1 X46.501 Y91.442 E4.9151
G1 X45.679 Y89.928 E4.9667
G1 X44.938 Y88.373 E5.0183
G1 X44.279 Y86.782 E5.0698
G1 X43.715 Y85.186 E5.1205
G1 X43.362 Y84.029 E5.1567
G1 X42.939 Y82.391 E5.2073
G1 X42.596 Y80.703 E5.2589
G1 X42.342 Y79 E5.3104
G1 X42.18 Y77.315 E5.3611
G1 X42.117 Y76.108 E5.3973
G1 X42.103 Y74.425 E5.4477
G1 X42.178 Y72.705 E5.4992
G1 X42.343 Y70.99 E5.5508
G1 X42.597 Y69.287 E5.6023
G1 X42.941 Y67.599 E5.6539
G1 X43.372 Y65.931 E5.7055
G1 X43.89 Y64.288 E5.757
G1 X44.493 Y62.675 E5.8086
G1 X45.168 Y61.123 E5.8592
G1 X45.698 Y60.036 E5.8954
G1 X46.506 Y58.549 E5.9461
G1 X47.406 Y57.08 E5.9977
G1 X48.381 Y55.66 E6.0492
G1 X49.43 Y54.294 E6.1008
G1 X50.529 Y53.007 E6.1514
G1 X51.354 Y52.123 E6.1876
G0 X51.64 Y52.402 F4800
G92 E0
G1 X52.833 Y51.229 E0.0501 F1400
G1 X54.108 Y50.102 E0.101
G1 X55.417 Y49.06 E0.1511
G1 X56.358 Y48.377 E0.1859
G1 X57.322 Y47.726 E0.2207
G1 X58.749 Y46.852 E0.2708
G1 X60.244 Y46.04 E0.3217
G1 X61.78 Y45.308 E0.3727
G1 X63.352 Y44.657 E0.4236
G1 X64.956 Y44.089 E0.4745
G1 X66.56 Y43.613 E0.5246
G1 X67.717 Y43.325 E0.5603
G1 X69.356 Y42.992 E0.6104
G1 X71.039 Y42.74 E0.6613
G1 X72.733 Y42.577 E0.7122
G1 X74.404 Y42.504 E0.7623
G1 X75.596 Y42.504 E0.798
G1 X77.267 Y42.577 E0.8481
G1 X78.961 Y42.74 E0.899
G1 X80.644 Y42.992 E0.9499
G1 X82.311 Y43.331 E1.0009
G1 X83.959 Y43.757 E1.0518
G1 X85.582 Y44.269 E1.1028
G1 X87.175 Y44.864 E1.1537
G1 X88.71 Y45.531 E1.2038
G1 X89.781 Y46.054 E1.2395
G1 X91.251 Y46.852 E1.2895
G1 X92.702 Y47.741 E1.3405
G1 X94.104 Y48.705 E1.3914
G1 X95.454 Y49.741 E1.4423
G1 X96.726 Y50.827 E1.4924
G1 X97.598 Y51.64 E1.5281
G1 X98.771 Y52.833 E1.5782
G1 X99.898 Y54.108 E1.6291
G1 X100.94 Y55.417 E1.6792
G1 X101.64 Y56.382 E1.7149
G1 X102.563 Y57.776 E1.7649
G1 X103.427 Y59.242 E1.8159
G1 X104.213 Y60.752 E1.8668
G1 X104.907 Y62.274 E1.9169
G1 X105.353 Y63.379 E1.9526
G1 X105.911 Y64.956 E2.0026
G1 X106.395 Y66.588 E2.0536
G1 X106.792 Y68.243 E2.1045
G1 X107.102 Y69.915 E2.1555
G1 X107.324 Y71.603 E2.2064
G1 X107.455 Y73.27 E2.2565
G1 X107.496 Y74.433 E2.2913
G1 X107.496 Y75.606 E2.3264
