; G-Code generated by Simplify3D(TM) Version 2.1.0
; Jun 25, 2014 at 10:08:20 PM
; Settings Summary
;   processName,Process1
;   applyToModels,hilt
;   printMaterial,PLA
;   printQuality,Medium
;   extruderName,Primary Extruder
;   extruderToolheadNumber,0
;   extruderDiameter,0.4
;   extruderAutoWidth,0
;   extruderWidth,0.4
;   extrusionMultiplier,0.9
;   extruderUseRetract,1
;   extruderRetractionDistance,1
;   extruderExtraRestartDistance,0
;   extruderRetractionZLift,0
;   extruderRetractionSpeed,1800
;   extruderUseCoasting,0
;   extruderCoastingDistance,0.2
;   extruderUseWipe,0
;   extruderWipeDistance,5
;   primaryExtruder,0
;   layerHeight,0.2
;   topSolidLayers,3
;   bottomSolidLayers,3
;   perimeterOutlines,2
;   printPerimetersInsideOut,0
;   startPointOption,1
;   startPointOriginX,0
;   startPointOriginY,0
;   startPointOriginZ,300
;   sequentialIslands,0
;   spiralVaseMode,0
;   firstLayerHeightRatio,0.9
;   firstLayerUnderspeed,0.5
;   useRaft,0
;   raftLayers,3
;   raftOffset,5
;   raftInfill,80
;   disableRaftBaseLayers,0
;   useSkirt,1
;   skirtLayers,1
;   skirtOutlines,10
;   skirtOffset,4
;   infillExtruder,0
;   externalInfillPattern,Rectilinear
;   infillPercentage,20
;   outlineOverlapPercentage,15
;   minInfillLength,5
;   infillLayerInterval,1
;   randomInfillStartPoint,1
;   infillAngles,45,-45
;   generateSupport,0
;   supportExtruder,0
;   supportInfill,30
;   supportExtraInflation,0
;   supportLayerInterval,1
;   supportHorizontalPartOffset,0.3
;   supportUpperSeparationLayers,1
;   supportLowerSeparationLayers,1
;   supportGridSpacing,4
;   maxOverhangAngle,45
;   supportAngles,0
;   temperatureName,Primary Extruder,Heated Bed
;   temperatureNumber,0,1
;   temperatureSetpointCount,1,1
;   temperatureSetpointLayers,1,1
;   temperatureSetpointTemperatures,215,65
;   temperatureStabilizeAtStartup,1,1
;   temperatureHeatedBed,0,1
;   temperatureRelayBetweenLayers,0,0
;   temperatureRelayBetweenLoops,0,0
;   fanLayers,1,1
;   fanSpeeds,0,100
;   blipFanToFullPower,1
;   adjustSpeedForCooling,1
;   minSpeedLayerTime,15
;   minCoolingSpeedSlowdown,20
;   increaseFanForCooling,0
;   minFanLayerTime,45
;   maxCoolingFanSpeed,100
;   increaseFanForBridging,0
;   bridgingFanSpeed,100
;   use5D,1
;   relativeEdistances,0
;   allowEaxisZeroing,1
;   includeM10123,0
;   stickySupport,1
;   detectArcs,0
;   arcReplaceG2G3,0
;   arcRadialCompensation,1
;   gcodeXoffset,0
;   gcodeYoffset,0
;   gcodeZoffset,0
;   overrideMachineDefinition,1
;   machineTypeOverride,0
;   strokeXoverride,150
;   strokeYoverride,150
;   strokeZoverride,150
;   originOffsetXoverride,0
;   originOffsetYoverride,0
;   originOffsetZoverride,0
;   homeXdirOverride,-1
;   homeYdirOverride,-1
;   homeZdirOverride,-1
;   flipXoverride,1
;   flipYoverride,-1
;   flipZoverride,1
;   startingGcode,G28 ; home all axes,G29 ; bed leveling
;   layerChangeGcode,
;   toolChangeGcode,
;   endingGcode,M104 S0 T0 ; turn off extruder,M140 S0 T1 ; turn off bed,G28 X0 ; home X axis,M84 ; disable motors,M106 S0 ; fans off
;   createX3G,0
;   celebration,0
;   celebrationSong,Random Song
;   postProcessing,
;   defaultSpeed,2800
;   outlineUnderspeed,0.5
;   supportUnderspeed,0.8
;   rapidXYspeed,4800
;   rapidZspeed,1000
;   minBridgingArea,50
;   bridgingExtrusionMultiplier,1
;   bridgingSpeedMultiplier,1
;   filamentDiameter,1.75
;   useMinPrintHeight,0
;   minPrintHeight,0
;   useMaxPrintHeight,0
;   maxPrintHeight,0
;   overlapRemoval,0
;   overlapRemovalPercentage,0.3
;   useDiaphragm,0
;   diaphragmLayerInterval,20
;   robustSlicing,1
;   mergeAllIntoSolid,0
;   onlyRetractWhenCrossingOutline,1
;   retractBetweenLayers,1
;   useRetractionMinTravel,0
;   retractionMinTravel,3
;   useRetractionOozeRate,0
;   retractionOozeRate,100
;   onlyWipeOutlines,1
G90 ; use absolute coordinates
M82 ; absolute extrusion distances
G21 ; set units to millimeters
M106 S0
M140 S65
M190 S65
M104 S215 T0
M109 S215 T0
G28 ; home all axes
G29 ; bed leveling
G92 E0
G1 E-1 F1800
; layer 1, Z = 0.18
T0
; tool H0.2 W0.4
G0 X51.519 Y50.684 F4800
G0 Z0.18 F1000
G1 E0 F540
G92 E0
G1 X52.823 Y49.489 E0.053 F1400
G1 X54.189 Y48.363 E0.1059
G1 X55.611 Y47.31 E0.1589
G1 X57.059 Y46.352 E0.2109
G1 X58.129 Y45.71 E0.2482
G1 X59.654 Y44.882 E0.3002
G1 X61.251 Y44.12 E0.3532
G1 X62.886 Y43.442 E0.4061
G1 X64.554 Y42.852 E0.4591
G1 X66.219 Y42.359 E0.5111
G1 X67.396 Y42.065 E0.5474
G1 X68.584 Y41.813 E0.5837
G1 X70.295 Y41.526 E0.6357
G1 X72.054 Y41.326 E0.6887
G1 X73.821 Y41.218 E0.7416
G1 X75.59 Y41.203 E0.7946
G1 X77.358 Y41.28 E0.8476
G1 X79.12 Y41.449 E0.9006
G1 X80.87 Y41.711 E0.9535
G1 X82.57 Y42.057 E1.0055
G1 X83.781 Y42.359 E1.0428
G1 X85.446 Y42.852 E1.0948
G1 X87.114 Y43.442 E1.1478
G1 X88.749 Y44.12 E1.2007
G1 X90.346 Y44.882 E1.2537
G1 X91.871 Y45.71 E1.3057
G1 X92.941 Y46.352 E1.343
G1 X94.388 Y47.31 E1.395
G1 X95.784 Y48.343 E1.4469
G1 X96.753 Y49.128 E1.4843
G1 X98.054 Y50.278 E1.5363
G1 X99.316 Y51.519 E1.5892
G1 X100.511 Y52.823 E1.6422
G1 X101.637 Y54.189 E1.6952
G1 X102.69 Y55.611 E1.7482
G1 X103.648 Y57.059 E1.8001
G1 X104.29 Y58.129 E1.8375
G1 X105.118 Y59.654 E1.8894
G1 X105.88 Y61.251 E1.9424
G1 X106.558 Y62.886 E1.9954
G1 X107.148 Y64.554 E2.0483
G1 X107.651 Y66.251 E2.1013
G1 X108.064 Y67.972 E2.1543
G1 X108.386 Y69.712 E2.2073
G1 X108.618 Y71.467 E2.2602
G1 X108.754 Y73.197 E2.3122
G1 X108.797 Y74.445 E2.3496
G1 X108.782 Y76.156 E2.4008
G1 X108.716 Y77.403 E2.4382
G1 X108.549 Y79.13 E2.4901
G1 X108.287 Y80.88 E2.5431
G1 X107.934 Y82.614 E2.5961
G1 X107.49 Y84.327 E2.649
G1 X106.958 Y86.015 E2.702
G1 X106.349 Y87.641 E2.754
G1 X105.861 Y88.789 E2.7913
G1 X105.114 Y90.356 E2.8433
G1 X104.269 Y91.911 E2.8963
G1 X103.361 Y93.39 E2.9482
G1 X102.663 Y94.424 E2.9856
G1 X101.63 Y95.82 E3.0375
G1 X100.504 Y97.185 E3.0905
G1 X99.308 Y98.489 E3.1435
G1 X98.046 Y99.729 E3.1964
G1 X96.745 Y100.879 E3.2484
G1 X95.775 Y101.664 E3.2858
G1 X94.38 Y102.696 E3.3377
G1 X92.932 Y103.653 E3.3897
G1 X91.862 Y104.295 E3.427
G1 X90.337 Y105.123 E3.479
G1 X88.739 Y105.885 E3.5319
G1 X87.104 Y106.561 E3.5849
G1 X85.436 Y107.151 E3.6379
G1 X83.771 Y107.644 E3.6899
G1 X82.593 Y107.937 E3.7262
G1 X81.406 Y108.189 E3.7625
G1 X79.694 Y108.475 E3.8145
G1 X77.936 Y108.675 E3.8674
G1 X76.169 Y108.782 E3.9204
G1 X74.399 Y108.797 E3.9734
G1 X72.632 Y108.72 E4.0264
G1 X70.87 Y108.549 E4.0794
G1 X69.12 Y108.287 E4.1323
G1 X67.419 Y107.941 E4.1843
G1 X66.209 Y107.638 E4.2216
G1 X64.544 Y107.145 E4.2736
G1 X62.876 Y106.554 E4.3266
G1 X61.242 Y105.876 E4.3795
G1 X59.644 Y105.114 E4.4325
G1 X58.119 Y104.285 E4.4845
G1 X57.05 Y103.642 E4.5218
G1 X55.603 Y102.683 E4.5738
G1 X54.208 Y101.651 E4.6257
G1 X53.238 Y100.865 E4.6631
G1 X51.939 Y99.714 E4.7151
G1 X50.677 Y98.473 E4.768
G1 X49.482 Y97.169 E4.821
G1 X48.357 Y95.803 E4.874
G1 X47.304 Y94.38 E4.9269
G1 X46.347 Y92.932 E4.9789
G1 X45.705 Y91.862 E5.0162
G1 X44.877 Y90.337 E5.0682
G1 X44.115 Y88.739 E5.1212
G1 X43.439 Y87.104 E5.1742
G1 X42.849 Y85.436 E5.2271
G1 X42.356 Y83.771 E5.2791
G1 X42.063 Y82.593 E5.3154
G1 X41.811 Y81.406 E5.3517
G1 X41.525 Y79.694 E5.4037
G1 X41.325 Y77.936 E5.4567
G1 X41.218 Y76.17 E5.5096
G1 X41.203 Y74.41 E5.5623
G1 X41.28 Y72.642 E5.6153
G1 X41.449 Y70.88 E5.6683
G1 X41.711 Y69.13 E5.7212
G1 X42.057 Y67.43 E5.7732
G1 X42.359 Y66.219 E5.8105
G1 X42.852 Y64.554 E5.8625
G1 X43.442 Y62.886 E5.9155
G1 X44.12 Y61.251 E5.9685
G1 X44.882 Y59.654 E6.0214
G1 X45.71 Y58.129 E6.0734
G1 X46.352 Y57.059 E6.1107
G1 X47.31 Y55.611 E6.1627
G1 X48.343 Y54.216 E6.2146
G1 X49.128 Y53.247 E6.252
G1 X50.278 Y51.946 E6.304
G1 X51.519 Y50.684 E6.3569
G0 X51.797 Y50.972 F4800
G92 E0
G1 X53.086 Y49.791 E0.0523 F1400
G1 X54.435 Y48.679 E0.1047
G1 X55.841 Y47.638 E0.157
G1 X57.272 Y46.691 E0.2084
G1 X58.327 Y46.057 E0.2453
G1 X59.836 Y45.238 E0.2966
G1 X61.414 Y44.485 E0.349
G1 X63.03 Y43.816 E0.4013
G1 X64.678 Y43.232 E0.4537
G1 X66.324 Y42.745 E0.5051
G1 X67.486 Y42.455 E0.5409
G1 X68.658 Y42.206 E0.5768
G1 X70.351 Y41.923 E0.6282
G1 X72.089 Y41.725 E0.6805
G1 X73.834 Y41.618 E0.7329
G1 X75.583 Y41.603 E0.7852
G1 X77.33 Y41.679 E0.8376
G1 X79.071 Y41.846 E0.8899
G1 X80.8 Y42.105 E0.9422
G1 X82.482 Y42.447 E0.9936
G1 X83.676 Y42.745 E1.0305
G1 X85.322 Y43.232 E1.0818
G1 X86.97 Y43.816 E1.1342
G1 X88.586 Y44.485 E1.1865
G1 X90.164 Y45.238 E1.2389
G1 X91.673 Y46.057 E1.2903
G1 X92.728 Y46.691 E1.3271
G1 X94.159 Y47.638 E1.3785
G1 X95.539 Y48.659 E1.4299
G1 X96.495 Y49.433 E1.4667
G1 X97.781 Y50.571 E1.5181
G1 X99.028 Y51.797 E1.5704
G1 X100.209 Y53.086 E1.6228
G1 X101.321 Y54.435 E1.6751
G1 X102.362 Y55.841 E1.7275
G1 X103.309 Y57.272 E1.7788
G1 X103.943 Y58.327 E1.8157
G1 X104.762 Y59.836 E1.8671
G1 X105.515 Y61.414 E1.9194
G1 X106.184 Y63.03 E1.9717
G1 X106.768 Y64.678 E2.0241
G1 X107.264 Y66.355 E2.0764
G1 X107.673 Y68.055 E2.1288
G1 X107.991 Y69.775 E2.1811
G1 X108.22 Y71.508 E2.2335
G1 X108.354 Y73.22 E2.2849
G1 X108.397 Y74.45 E2.3217
G1 X108.382 Y76.143 E2.3724
G1 X108.317 Y77.373 E2.4093
G1 X108.152 Y79.081 E2.4606
G1 X107.893 Y80.811 E2.513
G1 X107.544 Y82.524 E2.5653
G1 X107.106 Y84.217 E2.6177
G1 X106.579 Y85.885 E2.67
G1 X105.978 Y87.492 E2.7214
G1 X105.497 Y88.625 E2.7582
G1 X104.757 Y90.174 E2.8096
G1 X103.922 Y91.71 E2.862
G1 X103.025 Y93.173 E2.9133
G1 X102.337 Y94.193 E2.9502
G1 X101.315 Y95.573 E3.0016
G1 X100.202 Y96.922 E3.0539
G1 X99.021 Y98.211 E3.1062
G1 X97.773 Y99.436 E3.1586
G1 X96.487 Y100.573 E3.21
G1 X95.53 Y101.347 E3.2468
G1 X94.15 Y102.368 E3.2982
G1 X92.719 Y103.315 E3.3496
G1 X91.664 Y103.948 E3.3864
G1 X90.155 Y104.767 E3.4378
G1 X88.576 Y105.519 E3.4901
G1 X86.961 Y106.188 E3.5425
G1 X85.312 Y106.771 E3.5948
G1 X83.666 Y107.258 E3.6462
G1 X82.503 Y107.547 E3.6821
G1 X81.331 Y107.796 E3.7179
G1 X79.638 Y108.079 E3.7693
G1 X77.901 Y108.276 E3.8217
G1 X76.155 Y108.383 E3.874
G1 X74.407 Y108.397 E3.9264
G1 X72.66 Y108.32 E3.9787
G1 X70.919 Y108.152 E4.0311
G1 X69.189 Y107.893 E4.0834
G1 X67.508 Y107.55 E4.1348
G1 X66.314 Y107.252 E4.1716
G1 X64.668 Y106.764 E4.223
G1 X63.02 Y106.18 E4.2753
G1 X61.404 Y105.51 E4.3277
G1 X59.826 Y104.757 E4.38
G1 X58.318 Y103.938 E4.4314
G1 X57.264 Y103.304 E4.4683
G1 X55.832 Y102.356 E4.5196
G1 X54.453 Y101.334 E4.571
G1 X53.497 Y100.56 E4.6078
G1 X52.212 Y99.422 E4.6592
G1 X50.965 Y98.196 E4.7116
G1 X49.784 Y96.906 E4.7639
G1 X48.672 Y95.557 E4.8163
G1 X47.632 Y94.15 E4.8686
G1 X46.685 Y92.719 E4.92
G1 X46.052 Y91.664 E4.9568
G1 X45.233 Y90.155 E5.0082
G1 X44.481 Y88.576 E5.0606
G1 X43.812 Y86.961 E5.1129
G1 X43.229 Y85.312 E5.1653
G1 X42.742 Y83.666 E5.2166
G1 X42.453 Y82.503 E5.2525
G1 X42.204 Y81.331 E5.2884
G1 X41.921 Y79.638 E5.3397
G1 X41.724 Y77.901 E5.3921
G1 X41.618 Y76.156 E5.4444
G1 X41.603 Y74.417 E5.4965
G1 X41.679 Y72.67 E5.5488
G1 X41.846 Y70.929 E5.6012
G1 X42.105 Y69.2 E5.6535
G1 X42.447 Y67.518 E5.7049
G1 X42.745 Y66.324 E5.7417
G1 X43.232 Y64.678 E5.7931
G1 X43.816 Y63.03 E5.8455
G1 X44.485 Y61.414 E5.8978
G1 X45.238 Y59.836 E5.9502
G1 X46.057 Y58.327 E6.0015
G1 X46.691 Y57.272 E6.0384
G1 X47.638 Y55.841 E6.0897
G1 X48.659 Y54.461 E6.1411
G1 X49.433 Y53.505 E6.178
G1 X50.571 Y52.219 E6.2293
G1 X51.797 Y50.972 E6.2817
G0 X52.075 Y51.26 F4800
G92 E0
G1 X53.348 Y50.093 E0.0517 F1400
G1 X54.681 Y48.994 E0.1034
G1 X56.071 Y47.966 E0.1552
G1 X57.486 Y47.029 E0.206
G1 X58.526 Y46.404 E0.2423
G1 X60.017 Y45.595 E0.2931
G1 X61.577 Y44.851 E0.3448
G1 X63.173 Y44.19 E0.3965
G1 X64.802 Y43.613 E0.4482
G1 X66.429 Y43.131 E0.499
G1 X67.576 Y42.845 E0.5344
G1 X68.733 Y42.599 E0.5698
G1 X70.407 Y42.319 E0.6206
G1 X72.124 Y42.123 E0.6724
G1 X73.848 Y42.018 E0.7241
G1 X75.576 Y42.003 E0.7758
G1 X77.302 Y42.078 E0.8275
G1 X79.022 Y42.244 E0.8792
G1 X80.731 Y42.499 E0.931
G1 X82.394 Y42.837 E0.9818
G1 X83.571 Y43.131 E1.0181
G1 X85.198 Y43.613 E1.0689
G1 X86.827 Y44.19 E1.1206
G1 X88.423 Y44.851 E1.1723
G1 X89.983 Y45.595 E1.224
G1 X91.474 Y46.404 E1.2748
G1 X92.514 Y47.029 E1.3112
G1 X93.929 Y47.966 E1.362
G1 X95.294 Y48.976 E1.4128
G1 X96.236 Y49.739 E1.4491
G1 X97.508 Y50.864 E1.4999
G1 X98.74 Y52.075 E1.5516
G1 X99.907 Y53.348 E1.6033
G1 X101.006 Y54.681 E1.655
G1 X102.034 Y56.071 E1.7068
G1 X102.971 Y57.486 E1.7576
G1 X103.596 Y58.526 E1.7939
G1 X104.405 Y60.017 E1.8447
G1 X105.149 Y61.577 E1.8964
G1 X105.81 Y63.173 E1.9481
G1 X106.387 Y64.802 E1.9998
G1 X106.878 Y66.459 E2.0516
G1 X107.281 Y68.138 E2.1033
G1 X107.596 Y69.837 E2.155
G1 X107.822 Y71.55 E2.2067
G1 X107.955 Y73.243 E2.2575
G1 X107.997 Y74.455 E2.2939
G1 X107.982 Y76.131 E2.344
G1 X107.918 Y77.343 E2.3804
G1 X107.755 Y79.032 E2.4312
G1 X107.499 Y80.741 E2.4829
G1 X107.154 Y82.434 E2.5346
G1 X106.721 Y84.107 E2.5863
G1 X106.201 Y85.754 E2.638
G1 X105.606 Y87.344 E2.6888
G1 X105.132 Y88.46 E2.7252
G1 X104.401 Y89.992 E2.776
G1 X103.576 Y91.51 E2.8277
G1 X102.688 Y92.957 E2.8785
G1 X102.01 Y93.962 E2.9148
G1 X101 Y95.327 E2.9656
G1 X99.9 Y96.659 E3.0173
G1 X98.733 Y97.933 E3.069
G1 X97.5 Y99.143 E3.1208
G1 X96.228 Y100.268 E3.1716
G1 X95.285 Y101.031 E3.2079
G1 X93.921 Y102.04 E3.2587
G1 X92.505 Y102.976 E3.3095
G1 X91.465 Y103.601 E3.3458
G1 X89.974 Y104.41 E3.3966
G1 X88.414 Y105.153 E3.4483
G1 X86.817 Y105.814 E3.5001
G1 X85.188 Y106.39 E3.5518
G1 X83.561 Y106.872 E3.6026
G1 X82.413 Y107.158 E3.638
G1 X81.257 Y107.403 E3.6734
G1 X79.583 Y107.683 E3.7242
G1 X77.866 Y107.878 E3.7759
G1 X76.141 Y107.983 E3.8276
G1 X74.414 Y107.997 E3.8793
G1 X72.688 Y107.921 E3.931
G1 X70.968 Y107.755 E3.9828
G1 X69.259 Y107.499 E4.0345
G1 X67.596 Y107.16 E4.0853
G1 X66.419 Y106.867 E4.1216
G1 X64.792 Y106.384 E4.1724
G1 X63.163 Y105.807 E4.2241
G1 X61.567 Y105.145 E4.2759
G1 X60.008 Y104.401 E4.3276
G1 X58.517 Y103.59 E4.3784
G1 X57.477 Y102.965 E4.4147
G1 X56.062 Y102.028 E4.4655
G1 X54.698 Y101.018 E4.5163
G1 X53.756 Y100.254 E4.5526
G1 X52.485 Y99.129 E4.6034
G1 X51.253 Y97.918 E4.6551
G1 X50.086 Y96.644 E4.7069
G1 X48.988 Y95.31 E4.7586
G1 X47.96 Y93.921 E4.8103
G1 X47.024 Y92.505 E4.8611
G1 X46.399 Y91.465 E4.8974
G1 X45.59 Y89.974 E4.9482
G1 X44.847 Y88.414 E4.9999
G1 X44.186 Y86.817 E5.0517
G1 X43.61 Y85.188 E5.1034
G1 X43.128 Y83.561 E5.1542
G1 X42.842 Y82.413 E5.1896
G1 X42.597 Y81.257 E5.225
G1 X42.317 Y79.583 E5.2758
G1 X42.122 Y77.866 E5.3275
G1 X42.017 Y76.142 E5.3792
G1 X42.003 Y74.424 E5.4306
G1 X42.078 Y72.698 E5.4823
G1 X42.244 Y70.978 E5.5341
G1 X42.499 Y69.269 E5.5858
G1 X42.837 Y67.606 E5.6366
G1 X43.131 Y66.429 E5.6729
G1 X43.613 Y64.802 E5.7237
G1 X44.19 Y63.173 E5.7754
G1 X44.851 Y61.577 E5.8272
G1 X45.595 Y60.017 E5.8789
G1 X46.404 Y58.526 E5.9297
G1 X47.029 Y57.486 E5.966
G1 X47.966 Y56.071 E6.0168
G1 X48.976 Y54.706 E6.0676
G1 X49.739 Y53.764 E6.1039
G1 X50.864 Y52.492 E6.1547
G1 X52.075 Y51.26 E6.2064
G0 X52.353 Y51.548 F4800
G92 E0
G1 X53.611 Y50.395 E0.0511 F1400
G1 X54.928 Y49.309 E0.1022
G1 X56.3 Y48.294 E0.1533
G1 X57.699 Y47.368 E0.2035
G1 X58.724 Y46.752 E0.2393
G1 X60.199 Y45.951 E0.2895
G1 X61.739 Y45.216 E0.3406
G1 X63.316 Y44.563 E0.3917
G1 X64.925 Y43.993 E0.4428
G1 X66.534 Y43.517 E0.493
G1 X67.666 Y43.235 E0.528
G1 X68.807 Y42.992 E0.5629
G1 X70.463 Y42.715 E0.6131
G1 X72.159 Y42.522 E0.6642
G1 X73.862 Y42.418 E0.7153
G1 X75.569 Y42.403 E0.7664
G1 X77.274 Y42.477 E0.8175
G1 X78.973 Y42.641 E0.8686
G1 X80.661 Y42.893 E0.9197
G1 X82.306 Y43.228 E0.9699
G1 X83.466 Y43.517 E1.0057
G1 X85.075 Y43.993 E1.0559
G1 X86.684 Y44.563 E1.107
G1 X88.261 Y45.216 E1.1581
G1 X89.801 Y45.951 E1.2092
G1 X91.276 Y46.752 E1.2594
G1 X92.301 Y47.368 E1.2952
G1 X93.7 Y48.294 E1.3455
G1 X95.049 Y49.292 E1.3957
G1 X95.978 Y50.044 E1.4315
G1 X97.235 Y51.156 E1.4817
G1 X98.452 Y52.353 E1.5328
G1 X99.605 Y53.611 E1.5839
G1 X100.691 Y54.928 E1.635
G1 X101.706 Y56.3 E1.6861
G1 X102.632 Y57.699 E1.7363
G1 X103.248 Y58.724 E1.7721
G1 X104.049 Y60.199 E1.8223
G1 X104.784 Y61.739 E1.8734
G1 X105.437 Y63.316 E1.9245
G1 X106.007 Y64.925 E1.9756
G1 X106.491 Y66.562 E2.0267
G1 X106.89 Y68.222 E2.0778
G1 X107.201 Y69.9 E2.1289
G1 X107.424 Y71.592 E2.18
G1 X107.555 Y73.265 E2.2302
G1 X107.597 Y74.461 E2.266
G1 X107.582 Y76.119 E2.3157
G1 X107.519 Y77.313 E2.3515
G1 X107.358 Y78.983 E2.4017
