; G-Code generated by Simplify3D(TM) Version 2.1.0
; Sep 13, 2014 at 10:40:47 PM
; Settings Summary
;   processName,Process1
;   applyToModels,hilt_switch_only
;   printMaterial,PLA
;   printQuality,Fast
;   extruderName,Primary Extruder
;   extruderToolheadNumber,0
;   extruderDiameter,0.4
;   extruderAutoWidth,0
;   extruderWidth,0.4
;   extrusionMultiplier,0.9
;   extruderUseRetract,1
;   extruderRetractionDistance,1
;   extruderExtraRestartDistance,0
;   extruderRetractionZLift,0
;   extruderRetractionSpeed,1800
;   extruderUseCoasting,0
;   extruderCoastingDistance,0.2
;   extruderUseWipe,0
;   extruderWipeDistance,5
;   primaryExtruder,0
;   layerHeight,0.3
;   topSolidLayers,3
;   bottomSolidLayers,3
;   perimeterOutlines,2
;   printPerimetersInsideOut,0
;   startPointOption,2
;   startPointOriginX,0
;   startPointOriginY,0
;   startPointOriginZ,300
;   sequentialIslands,0
;   spiralVaseMode,0
;   firstLayerHeightRatio,0.9
;   firstLayerUnderspeed,0.5
;   useRaft,0
;   raftLayers,3
;   raftOffset,3
;   raftInfill,85
;   disableRaftBaseLayers,0
;   useSkirt,1
;   skirtLayers,1
;   skirtOutlines,10
;   skirtOffset,6
;   infillExtruder,0
;   externalInfillPattern,Rectilinear
;   infillPercentage,40
;   outlineOverlapPercentage,15
;   minInfillLength,5
;   infillLayerInterval,1
;   randomInfillStartPoint,1
;   infillAngles,45,-45
;   generateSupport,0
;   supportExtruder,0
;   supportInfill,25
;   supportExtraInflation,0
;   supportLayerInterval,1
;   supportHorizontalPartOffset,0.3
;   supportUpperSeparationLayers,1
;   supportLowerSeparationLayers,1
;   supportGridSpacing,4
;   maxOverhangAngle,45
;   supportAngles,0
;   temperatureName,Primary Extruder,Heated Bed
;   temperatureNumber,0,1
;   temperatureSetpointCount,1,1
;   temperatureSetpointLayers,1,1
;   temperatureSetpointTemperatures,200,65
;   temperatureStabilizeAtStartup,1,1
;   temperatureHeatedBed,0,1
;   temperatureRelayBetweenLayers,0,0
;   temperatureRelayBetweenLoops,0,0
;   fanLayers,1,1
;   fanSpeeds,0,100
;   blipFanToFullPower,1
;   adjustSpeedForCooling,1
;   minSpeedLayerTime,15
;   minCoolingSpeedSlowdown,20
;   increaseFanForCooling,0
;   minFanLayerTime,45
;   maxCoolingFanSpeed,100
;   increaseFanForBridging,0
;   bridgingFanSpeed,100
;   use5D,1
;   relativeEdistances,0
;   allowEaxisZeroing,1
;   includeM10123,0
;   stickySupport,1
;   detectArcs,0
;   arcReplaceG2G3,0
;   arcRadialCompensation,1
;   gcodeXoffset,0
;   gcodeYoffset,0
;   gcodeZoffset,0
;   overrideMachineDefinition,1
;   machineTypeOverride,0
;   strokeXoverride,150
;   strokeYoverride,150
;   strokeZoverride,150
;   originOffsetXoverride,0
;   originOffsetYoverride,0
;   originOffsetZoverride,0
;   homeXdirOverride,-1
;   homeYdirOverride,-1
;   homeZdirOverride,-1
;   flipXoverride,1
;   flipYoverride,-1
;   flipZoverride,1
;   startingGcode,G28 ; home all axes,G29 ; bed leveling
;   layerChangeGcode,
;   toolChangeGcode,
;   endingGcode,M104 S0 T0 ; turn off extruder,M140 S0 T1 ; turn off bed,G28 X0 ; home X axis,M84 ; disable motors
;   createX3G,0
;   celebration,0
;   celebrationSong,Random Song
;   postProcessing,
;   defaultSpeed,3600
;   outlineUnderspeed,0.5
;   supportUnderspeed,0.8
;   rapidXYspeed,4800
;   rapidZspeed,1000
;   minBridgingArea,50
;   bridgingExtrusionMultiplier,1
;   bridgingSpeedMultiplier,1
;   filamentDiameter,1.75
;   useMinPrintHeight,0
;   minPrintHeight,0
;   useMaxPrintHeight,0
;   maxPrintHeight,0
;   overlapRemoval,0
;   overlapRemovalPercentage,0.3
;   useDiaphragm,0
;   diaphragmLayerInterval,20
;   robustSlicing,1
;   mergeAllIntoSolid,0
;   onlyRetractWhenCrossingOutline,1
;   retractBetweenLayers,1
;   useRetractionMinTravel,0
;   retractionMinTravel,3
;   useRetractionOozeRate,0
;   retractionOozeRate,100
;   onlyWipeOutlines,1
G90 ; use absolute coordinates
M82 ; absolute extrusion distances
G21 ; set units to millimeters
M106 S0
M140 S65
M190 S65
M104 S200 T0
M109 S200 T0
G28 ; home all axes
G29 ; bed leveling
G92 E0
G1 E-1 F1800
; layer 1, Z = 0.27
T0
; tool H0.3 W0.4
G0 X49.925 Y49.096 F4800
G0 Z0.27 F1000
G1 E0 F540
G92 E0
G1 X50.908 Y48.179 E0.0604 F1800
G1 X52.311 Y46.981 E0.1432
G1 X53.808 Y45.832 E0.2279
G1 X55.364 Y44.763 E0.3127
G1 X56.973 Y43.777 E0.3974
G1 X58.632 Y42.876 E0.4822
G1 X60.297 Y42.082 E0.565
G1 X61.534 Y41.557 E0.6254
G1 X63.262 Y40.911 E0.7082
G1 X65.062 Y40.343 E0.793
G1 X66.89 Y39.871 E0.8777
G1 X68.74 Y39.494 E0.9625
G1 X70.606 Y39.215 E1.0472
G1 X72.485 Y39.034 E1.132
G1 X74.328 Y38.954 E1.2148
G1 X75.672 Y38.954 E1.2751
G1 X77.472 Y39.033 E1.3561
G1 X78.811 Y39.15 E1.4164
G1 X80.64 Y39.391 E1.4992
G1 X82.496 Y39.734 E1.584
G1 X84.29 Y40.165 E1.6668
G1 X85.582 Y40.536 E1.7272
G1 X87.331 Y41.121 E1.81
G1 X89.087 Y41.813 E1.8947
G1 X90.805 Y42.595 E1.9795
G1 X92.479 Y43.467 E2.0642
G1 X94.106 Y44.425 E2.149
G1 X95.679 Y45.467 E2.2338
G1 X97.162 Y46.564 E2.3166
G1 X98.207 Y47.41 E2.3769
G1 X99.588 Y48.632 E2.4598
G1 X100.935 Y49.955 E2.5445
G1 X102.21 Y51.347 E2.6293
G1 X103.41 Y52.803 E2.714
G1 X104.533 Y54.321 E2.7988
G1 X105.575 Y55.894 E2.8835
G1 X106.511 Y57.484 E2.9664
G1 X107.142 Y58.671 E3.0267
G1 X107.936 Y60.336 E3.1095
G1 X108.659 Y62.08 E3.1943
G1 X109.289 Y63.859 E3.279
G1 X109.825 Y65.669 E3.3638
G1 X110.256 Y67.463 E3.4466
G1 X110.512 Y68.782 E3.507
G1 X110.785 Y70.606 E3.5898
G1 X110.966 Y72.485 E3.6745
G1 X111.046 Y74.328 E3.7574
G1 X111.046 Y75.674 E3.8178
G1 X110.967 Y77.474 E3.8987
G1 X110.85 Y78.813 E3.9591
G1 X110.609 Y80.642 E4.0419
G1 X110.265 Y82.498 E4.1266
G1 X109.834 Y84.292 E4.2095
G1 X109.464 Y85.584 E4.2698
G1 X108.878 Y87.333 E4.3526
G1 X108.186 Y89.089 E4.4374
G1 X107.404 Y90.807 E4.5222
G1 X106.532 Y92.481 E4.6069
G1 X105.574 Y94.107 E4.6917
G1 X104.532 Y95.681 E4.7764
G1 X103.435 Y97.164 E4.8592
G1 X102.589 Y98.208 E4.9196
G1 X101.366 Y99.59 E5.0024
G1 X100.073 Y100.905 E5.0852
G1 X99.09 Y101.822 E5.1456
G1 X97.687 Y103.02 E5.2284
G1 X96.19 Y104.169 E5.3132
G1 X94.634 Y105.238 E5.3979
G1 X93.061 Y106.202 E5.4808
G1 X91.886 Y106.853 E5.5411
G1 X90.235 Y107.676 E5.6239
G1 X88.504 Y108.429 E5.7087
G1 X86.736 Y109.09 E5.7935
G1 X84.935 Y109.657 E5.8782
G1 X83.108 Y110.13 E5.9629
G1 X81.258 Y110.506 E6.0477
G1 X79.392 Y110.785 E6.1324
G1 X77.513 Y110.966 E6.2172
G1 X75.67 Y111.046 E6.3
G1 X74.326 Y111.046 E6.3604
G1 X72.526 Y110.967 E6.4413
G1 X71.187 Y110.85 E6.5016
G1 X69.358 Y110.609 E6.5845
G1 X67.502 Y110.265 E6.6692
G1 X65.708 Y109.834 E6.7521
G1 X64.416 Y109.464 E6.8124
G1 X62.667 Y108.878 E6.8952
G1 X60.911 Y108.186 E6.98
G1 X59.193 Y107.404 E7.0647
G1 X57.519 Y106.532 E7.1495
G1 X55.893 Y105.574 E7.2342
G1 X54.319 Y104.532 E7.319
G1 X52.836 Y103.435 E7.4018
G1 X51.792 Y102.589 E7.4622
G1 X50.41 Y101.366 E7.545
G1 X49.094 Y100.073 E7.6278
G1 X48.178 Y99.09 E7.6882
G1 X46.98 Y97.687 E7.771
G1 X45.831 Y96.19 E7.8558
G1 X44.762 Y94.634 E7.9405
G1 X43.798 Y93.061 E8.0233
G1 X43.147 Y91.886 E8.0837
G1 X42.324 Y90.235 E8.1665
G1 X41.571 Y88.504 E8.2513
G1 X40.925 Y86.776 E8.3341
G1 X40.51 Y85.498 E8.3944
G1 X40.017 Y83.72 E8.4773
G1 X39.609 Y81.877 E8.562
G1 X39.297 Y80.016 E8.6468
G1 X39.084 Y78.14 E8.7315
G1 X38.969 Y76.256 E8.8163
G1 X38.952 Y74.371 E8.9009
G1 X39.034 Y72.485 E8.9857
G1 X39.215 Y70.606 E9.0705
G1 X39.494 Y68.74 E9.1552
G1 X39.871 Y66.89 E9.24
G1 X40.343 Y65.062 E9.3247
G1 X40.911 Y63.262 E9.4094
G1 X41.557 Y61.534 E9.4923
G1 X42.082 Y60.297 E9.5526
G1 X42.858 Y58.671 E9.6335
G1 X43.489 Y57.484 E9.6939
G1 X44.425 Y55.894 E9.7767
G1 X45.467 Y54.321 E9.8615
G1 X46.564 Y52.838 E9.9443
G1 X47.41 Y51.793 E10.0046
G1 X48.632 Y50.412 E10.0875
G1 X49.925 Y49.096 E10.1703
G0 X50.204 Y49.383 F4800
G92 E0
G1 X51.174 Y48.478 E0.0596 F1800
G1 X52.563 Y47.292 E0.1415
G1 X54.044 Y46.156 E0.2254
G1 X55.582 Y45.099 E0.3092
G1 X57.173 Y44.123 E0.393
G1 X58.814 Y43.233 E0.4768
G1 X60.461 Y42.447 E0.5588
G1 X61.682 Y41.929 E0.6183
G1 X63.393 Y41.289 E0.7003
G1 X65.173 Y40.728 E0.7841
G1 X66.98 Y40.261 E0.8679
G1 X68.809 Y39.888 E0.9517
G1 X70.655 Y39.613 E1.0355
G1 X72.513 Y39.434 E1.1193
G1 X74.337 Y39.354 E1.2013
G1 X75.663 Y39.354 E1.2609
G1 X77.446 Y39.432 E1.341
G1 X78.768 Y39.547 E1.4006
G1 X80.577 Y39.786 E1.4825
G1 X82.412 Y40.126 E1.5663
G1 X84.188 Y40.552 E1.6483
G1 X85.463 Y40.918 E1.7079
G1 X87.194 Y41.497 E1.7898
G1 X88.931 Y42.181 E1.8737
G1 X90.629 Y42.955 E1.9575
G1 X92.285 Y43.817 E2.0413
G1 X93.894 Y44.764 E2.1251
G1 X95.45 Y45.795 E2.2089
G1 X96.917 Y46.88 E2.2909
G1 X97.948 Y47.715 E2.3504
G1 X99.315 Y48.925 E2.4324
G1 X100.647 Y50.233 E2.5162
G1 X101.908 Y51.609 E2.6
G1 X103.095 Y53.05 E2.6838
G1 X104.205 Y54.55 E2.7676
G1 X105.236 Y56.106 E2.8514
G1 X106.162 Y57.68 E2.9334
G1 X106.785 Y58.851 E2.993
G1 X107.571 Y60.499 E3.075
G1 X108.285 Y62.223 E3.1588
G1 X108.908 Y63.982 E3.2426
G1 X109.438 Y65.772 E3.3264
G1 X109.865 Y67.548 E3.4084
G1 X110.118 Y68.85 E3.4679
G1 X110.387 Y70.655 E3.5499
G1 X110.566 Y72.513 E3.6337
G1 X110.646 Y74.337 E3.7157
G1 X110.646 Y75.665 E3.7753
G1 X110.568 Y77.448 E3.8555
G1 X110.452 Y78.77 E3.915
G1 X110.214 Y80.579 E3.997
G1 X109.874 Y82.415 E4.0808
G1 X109.447 Y84.19 E4.1628
G1 X109.082 Y85.465 E4.2223
G1 X108.502 Y87.196 E4.3043
G1 X107.818 Y88.933 E4.3881
G1 X107.044 Y90.631 E4.4719
G1 X106.182 Y92.287 E4.5557
G1 X105.234 Y93.895 E4.6395
G1 X104.204 Y95.452 E4.7234
G1 X103.118 Y96.919 E4.8053
G1 X102.283 Y97.95 E4.8649
G1 X101.074 Y99.317 E4.9468
G1 X99.794 Y100.619 E5.0288
G1 X98.824 Y101.524 E5.0884
G1 X97.436 Y102.709 E5.1703
G1 X95.955 Y103.845 E5.2542
G1 X94.416 Y104.902 E5.338
G1 X92.86 Y105.856 E5.4199
G1 X91.699 Y106.499 E5.4795
G1 X90.066 Y107.314 E5.5615
G1 X88.354 Y108.058 E5.6453
G1 X86.605 Y108.712 E5.7291
G1 X84.825 Y109.273 E5.8129
G1 X83.018 Y109.74 E5.8967
G1 X81.189 Y110.112 E5.9805
G1 X79.343 Y110.388 E6.0643
G1 X77.485 Y110.567 E6.1481
G1 X75.661 Y110.646 E6.2301
G1 X74.335 Y110.646 E6.2897
G1 X72.552 Y110.568 E6.3698
G1 X71.23 Y110.452 E6.4294
G1 X69.421 Y110.214 E6.5113
G1 X67.585 Y109.874 E6.5951
G1 X65.81 Y109.447 E6.6771
G1 X64.535 Y109.082 E6.7367
G1 X62.804 Y108.502 E6.8186
G1 X61.067 Y107.818 E6.9025
G1 X59.369 Y107.044 E6.9863
G1 X57.713 Y106.182 E7.0701
G1 X56.105 Y105.234 E7.1539
G1 X54.548 Y104.204 E7.2377
G1 X53.081 Y103.118 E7.3197
G1 X52.05 Y102.283 E7.3792
G1 X50.683 Y101.074 E7.4612
G1 X49.381 Y99.794 E7.5432
G1 X48.476 Y98.824 E7.6027
G1 X47.291 Y97.436 E7.6847
G1 X46.155 Y95.955 E7.7685
G1 X45.098 Y94.416 E7.8523
G1 X44.144 Y92.86 E7.9343
G1 X43.501 Y91.699 E7.9939
G1 X42.686 Y90.066 E8.0758
G1 X41.942 Y88.354 E8.1596
G1 X41.303 Y86.644 E8.2416
G1 X40.893 Y85.382 E8.3012
G1 X40.405 Y83.623 E8.3831
G1 X40.001 Y81.801 E8.467
G1 X39.694 Y79.96 E8.5508
G1 X39.482 Y78.105 E8.6346
G1 X39.368 Y76.242 E8.7184
G1 X39.352 Y74.378 E8.8021
G1 X39.434 Y72.513 E8.8859
G1 X39.613 Y70.655 E8.9697
G1 X39.888 Y68.809 E9.0535
G1 X40.261 Y66.98 E9.1373
G1 X40.728 Y65.173 E9.2212
G1 X41.289 Y63.393 E9.305
G1 X41.929 Y61.682 E9.3869
G1 X42.447 Y60.461 E9.4465
G1 X43.215 Y58.851 E9.5266
G1 X43.838 Y57.68 E9.5862
G1 X44.764 Y56.106 E9.6682
G1 X45.795 Y54.55 E9.752
G1 X46.88 Y53.083 E9.8339
G1 X47.715 Y52.052 E9.8935
G1 X48.925 Y50.684 E9.9755
G1 X50.204 Y49.383 E10.0574
G0 X50.483 Y49.669 F4800
G92 E0
G1 X51.441 Y48.776 E0.0588 F1800
G1 X52.815 Y47.603 E0.1399
G1 X54.279 Y46.48 E0.2228
G1 X55.8 Y45.434 E0.3056
G1 X57.373 Y44.47 E0.3885
G1 X58.995 Y43.589 E0.4714
G1 X60.626 Y42.812 E0.5525
G1 X61.831 Y42.3 E0.6113
G1 X63.523 Y41.667 E0.6924
G1 X65.283 Y41.113 E0.7752
G1 X67.07 Y40.65 E0.8581
G1 X68.878 Y40.282 E0.941
G1 X70.704 Y40.01 E1.0238
G1 X72.541 Y39.833 E1.1067
G1 X74.346 Y39.754 E1.1878
G1 X75.654 Y39.754 E1.2466
G1 X77.42 Y39.831 E1.326
G1 X78.724 Y39.945 E1.3847
G1 X80.515 Y40.181 E1.4658
G1 X82.329 Y40.517 E1.5487
G1 X84.086 Y40.939 E1.6298
G1 X85.345 Y41.3 E1.6886
G1 X87.057 Y41.873 E1.7697
G1 X88.775 Y42.549 E1.8526
G1 X90.454 Y43.315 E1.9354
G1 X92.091 Y44.167 E2.0183
G1 X93.682 Y45.104 E2.1012
G1 X95.22 Y46.122 E2.1841
G1 X96.672 Y47.197 E2.2651
G1 X97.69 Y48.021 E2.3239
G1 X99.043 Y49.218 E2.405
G1 X100.359 Y50.511 E2.4879
G1 X101.606 Y51.872 E2.5708
G1 X102.78 Y53.296 E2.6537
G1 X103.878 Y54.78 E2.7365
G1 X104.896 Y56.318 E2.8194
G1 X105.813 Y57.875 E2.9005
G1 X106.428 Y59.031 E2.9593
G1 X107.205 Y60.661 E3.0404
G1 X107.912 Y62.367 E3.1233
G1 X108.528 Y64.106 E3.2061
G1 X109.052 Y65.876 E3.289
G1 X109.474 Y67.632 E3.3701
G1 X109.723 Y68.917 E3.4289
G1 X109.99 Y70.704 E3.51
G1 X110.167 Y72.541 E3.5929
G1 X110.246 Y74.346 E3.674
G1 X110.246 Y75.656 E3.7328
G1 X110.169 Y77.422 E3.8122
G1 X110.055 Y78.726 E3.871
G1 X109.819 Y80.517 E3.9521
G1 X109.482 Y82.331 E4.0349
G1 X109.061 Y84.088 E4.116
G1 X108.7 Y85.347 E4.1748
G1 X108.126 Y87.059 E4.2559
G1 X107.45 Y88.776 E4.3388
G1 X106.684 Y90.456 E4.4217
G1 X105.832 Y92.093 E4.5045
G1 X104.895 Y93.683 E4.5874
G1 X103.876 Y95.222 E4.6703
G1 X102.802 Y96.674 E4.7514
G1 X101.978 Y97.691 E4.8102
G1 X100.781 Y99.044 E4.8913
G1 X99.515 Y100.332 E4.9724
G1 X98.558 Y101.225 E5.0312
G1 X97.184 Y102.398 E5.1123
G1 X95.719 Y103.522 E5.1951
G1 X94.199 Y104.567 E5.278
G1 X92.658 Y105.511 E5.3591
G1 X91.513 Y106.145 E5.4179
G1 X89.897 Y106.951 E5.499
G1 X88.204 Y107.687 E5.5819
G1 X86.475 Y108.333 E5.6647
G1 X84.715 Y108.888 E5.7476
G1 X82.928 Y109.35 E5.8305
G1 X81.12 Y109.718 E5.9134
G1 X79.294 Y109.99 E5.9962
G1 X77.457 Y110.167 E6.0791
G1 X75.652 Y110.246 E6.1602
G1 X74.344 Y110.246 E6.219
G1 X72.578 Y110.169 E6.2983
G1 X71.274 Y110.055 E6.3571
G1 X69.483 Y109.819 E6.4382
G1 X67.669 Y109.482 E6.5211
G1 X65.912 Y109.061 E6.6022
G1 X64.653 Y108.7 E6.661
G1 X62.941 Y108.126 E6.7421
G1 X61.224 Y107.45 E6.8249
G1 X59.544 Y106.684 E6.9078
G1 X57.907 Y105.832 E6.9907
G1 X56.317 Y104.895 E7.0736
G1 X54.778 Y103.876 E7.1564
G1 X53.326 Y102.802 E7.2375
G1 X52.309 Y101.978 E7.2963
G1 X50.956 Y100.781 E7.3774
G1 X49.668 Y99.515 E7.4585
G1 X48.775 Y98.558 E7.5173
G1 X47.602 Y97.184 E7.5984
G1 X46.478 Y95.719 E7.6813
G1 X45.433 Y94.199 E7.7641
G1 X44.489 Y92.658 E7.8453
G1 X43.855 Y91.513 E7.904
G1 X43.049 Y89.897 E7.9851
G1 X42.313 Y88.204 E8.068
G1 X41.681 Y86.512 E8.1491
G1 X41.276 Y85.267 E8.2079
G1 X40.794 Y83.526 E8.289
G1 X40.394 Y81.724 E8.3719
G1 X40.09 Y79.904 E8.4547
G1 X39.881 Y78.071 E8.5376
G1 X39.768 Y76.228 E8.6205
G1 X39.752 Y74.385 E8.7033
G1 X39.833 Y72.541 E8.7861
G1 X40.01 Y70.704 E8.869
G1 X40.282 Y68.878 E8.9519
G1 X40.65 Y67.07 E9.0347
G1 X41.113 Y65.283 E9.1176
G1 X41.667 Y63.523 E9.2005
G1 X42.3 Y61.831 E9.2816
G1 X42.812 Y60.626 E9.3404
G1 X43.572 Y59.031 E9.4197
G1 X44.187 Y57.875 E9.4785
G1 X45.104 Y56.318 E9.5596
G1 X46.122 Y54.78 E9.6425
G1 X47.197 Y53.328 E9.7236
G1 X48.021 Y52.31 E9.7823
G1 X49.218 Y50.957 E9.8635
G1 X50.483 Y49.669 E9.9446
G0 X50.763 Y49.956 F4800
G92 E0
G1 X51.707 Y49.075 E0.058 F1800
G1 X53.066 Y47.914 E0.1382
G1 X54.514 Y46.803 E0.2202
G1 X56.018 Y45.77 E0.3021
G1 X57.574 Y44.816 E0.384
G1 X59.177 Y43.946 E0.466
G1 X60.79 Y43.176 E0.5462
G1 X61.979 Y42.672 E0.6042
G1 X63.653 Y42.046 E0.6845
G1 X65.393 Y41.497 E0.7664
G1 X67.16 Y41.04 E0.8483
G1 X68.948 Y40.677 E0.9302
G1 X70.752 Y40.407 E1.0122
G1 X72.569 Y40.232 E1.0941
G1 X74.354 Y40.154 E1.1744
G1 X75.646 Y40.154 E1.2323
G1 X77.394 Y40.23 E1.3109
G1 X78.681 Y40.343 E1.3689
G1 X80.452 Y40.576 E1.4491
G1 X82.246 Y40.909 E1.5311
G1 X83.984 Y41.326 E1.6113
G1 X85.226 Y41.682 E1.6693
G1 X86.92 Y42.249 E1.7495
G1 X88.618 Y42.918 E1.8315
G1 X90.278 Y43.674 E1.9134
G1 X91.897 Y44.517 E1.9953
G1 X93.469 Y45.443 E2.0773
G1 X94.991 Y46.45 E2.1592
G1 X96.427 Y47.513 E2.2394
G1 X97.431 Y48.326 E2.2974
G1 X98.77 Y49.51 E2.3777
G1 X100.071 Y50.789 E2.4596
G1 X101.304 Y52.134 E2.5415
G1 X102.465 Y53.542 E2.6235
G1 X103.55 Y55.009 E2.7054
G1 X104.557 Y56.531 E2.7873
G1 X105.464 Y58.071 E2.8676
G1 X106.07 Y59.211 E2.9256
G1 X106.84 Y60.824 E3.0058
G1 X107.538 Y62.51 E3.0878
G1 X108.147 Y64.23 E3.1697
G1 X108.665 Y65.979 E3.2516
G1 X109.083 Y67.717 E3.3319
G1 X109.329 Y68.985 E3.3899
G1 X109.593 Y70.752 E3.4701
G1 X109.768 Y72.569 E3.552
G1 X109.846 Y74.355 E3.6323
G1 X109.846 Y75.648 E3.6903
G1 X109.77 Y77.396 E3.7689
G1 X109.657 Y78.683 E3.8269
