; G-Code generated by Simplify3D(TM) Version 2.1.0
; Jun 22, 2014 at 4:37:56 PM
; Settings Summary
;   processName,Process1
;   applyToModels,hilt
;   printMaterial,PLA
;   printQuality,Medium
;   extruderName,Primary Extruder
;   extruderToolheadNumber,0
;   extruderDiameter,0.4
;   extruderAutoWidth,0
;   extruderWidth,0.4
;   extrusionMultiplier,0.9
;   extruderUseRetract,1
;   extruderRetractionDistance,1
;   extruderExtraRestartDistance,0
;   extruderRetractionZLift,0
;   extruderRetractionSpeed,1800
;   extruderUseCoasting,0
;   extruderCoastingDistance,0.2
;   extruderUseWipe,0
;   extruderWipeDistance,5
;   primaryExtruder,0
;   layerHeight,0.2
;   topSolidLayers,3
;   bottomSolidLayers,3
;   perimeterOutlines,3
;   printPerimetersInsideOut,1
;   startPointOption,2
;   startPointOriginX,0
;   startPointOriginY,0
;   startPointOriginZ,300
;   sequentialIslands,0
;   spiralVaseMode,0
;   firstLayerHeightRatio,0.9
;   firstLayerUnderspeed,0.5
;   useRaft,0
;   raftLayers,3
;   raftOffset,5
;   raftInfill,80
;   disableRaftBaseLayers,0
;   useSkirt,1
;   skirtLayers,1
;   skirtOutlines,15
;   skirtOffset,4
;   infillExtruder,0
;   externalInfillPattern,Rectilinear
;   infillPercentage,50
;   outlineOverlapPercentage,15
;   minInfillLength,5
;   infillLayerInterval,1
;   randomInfillStartPoint,1
;   infillAngles,45,-45
;   generateSupport,0
;   supportExtruder,0
;   supportInfill,30
;   supportExtraInflation,0
;   supportLayerInterval,1
;   supportHorizontalPartOffset,0.3
;   supportUpperSeparationLayers,1
;   supportLowerSeparationLayers,1
;   supportGridSpacing,4
;   maxOverhangAngle,45
;   supportAngles,0
;   temperatureName,Primary Extruder,Heated Bed
;   temperatureNumber,0,1
;   temperatureSetpointCount,1,1
;   temperatureSetpointLayers,1,1
;   temperatureSetpointTemperatures,215,65
;   temperatureStabilizeAtStartup,1,1
;   temperatureHeatedBed,0,1
;   temperatureRelayBetweenLayers,0,0
;   temperatureRelayBetweenLoops,0,0
;   fanLayers,1,1
;   fanSpeeds,0,100
;   blipFanToFullPower,1
;   adjustSpeedForCooling,1
;   minSpeedLayerTime,15
;   minCoolingSpeedSlowdown,20
;   increaseFanForCooling,0
;   minFanLayerTime,45
;   maxCoolingFanSpeed,100
;   increaseFanForBridging,0
;   bridgingFanSpeed,100
;   use5D,1
;   relativeEdistances,0
;   allowEaxisZeroing,1
;   includeM10123,0
;   stickySupport,1
;   detectArcs,0
;   arcReplaceG2G3,0
;   arcRadialCompensation,1
;   gcodeXoffset,0
;   gcodeYoffset,0
;   gcodeZoffset,0
;   overrideMachineDefinition,1
;   machineTypeOverride,0
;   strokeXoverride,150
;   strokeYoverride,150
;   strokeZoverride,150
;   originOffsetXoverride,0
;   originOffsetYoverride,0
;   originOffsetZoverride,0
;   homeXdirOverride,-1
;   homeYdirOverride,-1
;   homeZdirOverride,-1
;   flipXoverride,1
;   flipYoverride,-1
;   flipZoverride,1
;   startingGcode,G28 ; home all axes,G29 ; bed leveling
;   layerChangeGcode,
;   toolChangeGcode,
;   endingGcode,M104 S0 T0 ; turn off extruder,M140 S0 T1 ; turn off bed,G28 X0 ; home X axis,M84 ; disable motors,M106 S0 ; fans off
;   createX3G,0
;   celebration,0
;   celebrationSong,Random Song
;   postProcessing,
;   defaultSpeed,2800
;   outlineUnderspeed,0.5
;   supportUnderspeed,0.8
;   rapidXYspeed,4800
;   rapidZspeed,1000
;   minBridgingArea,50
;   bridgingExtrusionMultiplier,1
;   bridgingSpeedMultiplier,1
;   filamentDiameter,1.75
;   useMinPrintHeight,0
;   minPrintHeight,0
;   useMaxPrintHeight,0
;   maxPrintHeight,0
;   overlapRemoval,0
;   overlapRemovalPercentage,0.3
;   useDiaphragm,0
;   diaphragmLayerInterval,20
;   robustSlicing,1
;   mergeAllIntoSolid,0
;   onlyRetractWhenCrossingOutline,1
;   retractBetweenLayers,1
;   useRetractionMinTravel,0
;   retractionMinTravel,3
;   useRetractionOozeRate,0
;   retractionOozeRate,100
;   onlyWipeOutlines,1
G90 ; use absolute coordinates
M82 ; absolute extrusion distances
G21 ; set units to millimeters
M106 S0
M140 S65
M190 S65
M104 S215 T0
M109 S215 T0
G28 ; home all axes
G29 ; bed leveling
G92 E0
G1 E-1 F1800
; layer 1, Z = 0.18
T0
; tool H0.2 W0.4
G0 X53.393 Y53.398 F4800
G0 Z0.18 F1000
G1 E0 F540
G92 E0
G1 X54.554 Y52.296 E0.0479 F1400
G1 X55.77 Y51.257 E0.0958
G1 X57.039 Y50.284 E0.1436
G1 X58.357 Y49.378 E0.1915
G1 X59.721 Y48.542 E0.2394
G1 X61.126 Y47.778 E0.2873
G1 X62.531 Y47.108 E0.3339
G1 X63.592 Y46.658 E0.3684
G1 X65.05 Y46.112 E0.415
G1 X66.575 Y45.631 E0.4629
G1 X68.124 Y45.23 E0.5107
G1 X69.649 Y44.92 E0.5573
G1 X70.788 Y44.739 E0.5918
G1 X72.334 Y44.563 E0.6384
G1 X73.93 Y44.465 E0.6863
G1 X75.53 Y44.451 E0.7342
G1 X77.128 Y44.521 E0.7821
G1 X78.72 Y44.674 E0.83
G1 X80.26 Y44.904 E0.8765
G1 X81.391 Y45.124 E0.911
G1 X82.905 Y45.487 E0.9577
G1 X84.439 Y45.941 E1.0055
G1 X85.946 Y46.475 E1.0534
G1 X87.385 Y47.07 E1.1
G1 X88.429 Y47.557 E1.1345
G1 X89.81 Y48.276 E1.1811
G1 X91.151 Y49.066 E1.2277
G1 X92.117 Y49.693 E1.2622
G1 X93.35 Y50.572 E1.3075
G1 X94.258 Y51.281 E1.342
G1 X95.442 Y52.292 E1.3886
G1 X96.602 Y53.393 E1.4365
G1 X97.704 Y54.554 E1.4844
G1 X98.743 Y55.77 E1.5322
G1 X99.716 Y57.039 E1.5801
G1 X100.622 Y58.357 E1.628
G1 X101.458 Y59.72 E1.6759
G1 X102.222 Y61.126 E1.7238
G1 X102.892 Y62.531 E1.7704
G1 X103.342 Y63.592 E1.8048
G1 X103.888 Y65.05 E1.8514
G1 X104.369 Y66.575 E1.8993
G1 X104.77 Y68.124 E1.9472
G1 X105.08 Y69.649 E1.9938
G1 X105.26 Y70.788 E2.0283
G1 X105.437 Y72.334 E2.0749
G1 X105.532 Y73.888 E2.1215
G1 X105.552 Y75.04 E2.156
G1 X105.512 Y76.599 E2.2027
G1 X105.386 Y78.194 E2.2506
G1 X105.177 Y79.779 E2.2984
G1 X104.886 Y81.352 E2.3463
G1 X104.512 Y82.908 E2.3942
G1 X104.058 Y84.442 E2.4421
G1 X103.524 Y85.949 E2.49
G1 X102.928 Y87.388 E2.5366
G1 X102.441 Y88.432 E2.5711
G1 X101.723 Y89.813 E2.6177
G1 X100.932 Y91.154 E2.6643
G1 X100.305 Y92.12 E2.6987
G1 X99.426 Y93.353 E2.7441
G1 X98.717 Y94.26 E2.7785
G1 X97.706 Y95.444 E2.8251
G1 X96.605 Y96.605 E2.873
G1 X95.444 Y97.706 E2.9209
G1 X94.228 Y98.745 E2.9688
G1 X92.959 Y99.718 E3.0167
G1 X91.641 Y100.624 E3.0646
G1 X90.277 Y101.46 E3.1124
G1 X88.871 Y102.223 E3.1603
G1 X87.466 Y102.894 E3.2069
G1 X86.405 Y103.344 E3.2414
G1 X84.947 Y103.889 E3.288
G1 X83.422 Y104.37 E3.3359
G1 X81.873 Y104.77 E3.3838
G1 X80.347 Y105.081 E3.4304
G1 X79.251 Y105.254 E3.4636
G1 X78.151 Y105.389 E3.4968
G1 X76.599 Y105.512 E3.5434
G1 X75 Y105.553 E3.5913
G1 X73.401 Y105.512 E3.6391
G1 X71.849 Y105.389 E3.6857
G1 X70.706 Y105.249 E3.7202
G1 X69.128 Y104.985 E3.7681
G1 X67.133 Y104.524 E3.8294
G1 X65.558 Y104.058 E3.8786
G1 X64.051 Y103.524 E3.9264
G1 X62.612 Y102.928 E3.973
G1 X61.568 Y102.441 E4.0075
G1 X60.187 Y101.723 E4.0541
G1 X58.846 Y100.932 E4.1007
G1 X57.88 Y100.305 E4.1352
G1 X56.647 Y99.426 E4.1805
G1 X55.74 Y98.717 E4.215
G1 X54.556 Y97.706 E4.2616
G1 X53.395 Y96.605 E4.3095
G1 X52.294 Y95.444 E4.3574
G1 X51.255 Y94.228 E4.4053
G1 X50.282 Y92.959 E4.4531
G1 X49.376 Y91.641 E4.501
G1 X48.54 Y90.277 E4.5489
G1 X47.777 Y88.871 E4.5968
G1 X47.106 Y87.466 E4.6434
G1 X46.656 Y86.405 E4.6779
G1 X46.111 Y84.947 E4.7245
G1 X45.63 Y83.422 E4.7723
G1 X45.23 Y81.873 E4.8202
G1 X44.919 Y80.347 E4.8668
G1 X44.739 Y79.209 E4.9013
G1 X44.563 Y77.663 E4.9479
G1 X44.465 Y76.066 E4.9958
G1 X44.451 Y74.47 E5.0436
G1 X44.521 Y72.872 E5.0915
G1 X44.674 Y71.28 E5.1394
G1 X44.904 Y69.74 E5.1859
G1 X45.124 Y68.609 E5.2204
G1 X45.487 Y67.095 E5.267
G1 X45.941 Y65.561 E5.3149
G1 X46.475 Y64.054 E5.3628
G1 X47.07 Y62.615 E5.4094
G1 X47.557 Y61.571 E5.4439
G1 X48.276 Y60.19 E5.4905
G1 X49.066 Y58.849 E5.5371
G1 X49.693 Y57.883 E5.5716
G1 X50.572 Y56.65 E5.6169
G1 X51.281 Y55.742 E5.6514
G1 X52.292 Y54.558 E5.698
G1 X53.393 Y53.398 E5.7459
G0 X53.676 Y53.681 F4800
G92 E0
G1 X54.821 Y52.594 E0.0473 F1400
G1 X56.022 Y51.568 E0.0945
G1 X57.274 Y50.607 E0.1418
G1 X58.575 Y49.713 E0.189
G1 X59.921 Y48.888 E0.2363
G1 X61.308 Y48.135 E0.2835
G1 X62.696 Y47.473 E0.3296
G1 X63.74 Y47.029 E0.3635
G1 X65.18 Y46.491 E0.4095
G1 X66.685 Y46.016 E0.4568
G1 X68.214 Y45.62 E0.5041
G1 X69.721 Y45.314 E0.5501
G1 X70.841 Y45.136 E0.5841
G1 X72.369 Y44.962 E0.6301
G1 X73.945 Y44.865 E0.6773
G1 X75.523 Y44.851 E0.7246
G1 X77.1 Y44.92 E0.7718
G1 X78.672 Y45.071 E0.8191
G1 X80.192 Y45.298 E0.8651
G1 X81.306 Y45.515 E0.8991
G1 X82.801 Y45.873 E0.9451
G1 X84.315 Y46.322 E0.9924
G1 X85.803 Y46.848 E1.0396
G1 X87.224 Y47.437 E1.0856
G1 X88.252 Y47.916 E1.1196
G1 X89.616 Y48.626 E1.1656
G1 X90.941 Y49.406 E1.2117
G1 X91.892 Y50.024 E1.2456
G1 X93.111 Y50.893 E1.2904
G1 X94.005 Y51.591 E1.3244
G1 X95.174 Y52.59 E1.3704
G1 X96.319 Y53.676 E1.4177
G1 X97.406 Y54.821 E1.4649
G1 X98.432 Y56.022 E1.5122
G1 X99.393 Y57.274 E1.5594
G1 X100.287 Y58.575 E1.6067
G1 X101.112 Y59.921 E1.6539
G1 X101.865 Y61.308 E1.7012
G1 X102.527 Y62.696 E1.7472
G1 X102.971 Y63.74 E1.7812
G1 X103.509 Y65.18 E1.8272
G1 X103.984 Y66.685 E1.8744
G1 X104.38 Y68.214 E1.9217
G1 X104.686 Y69.721 E1.9677
G1 X104.864 Y70.841 E2.0017
G1 X105.038 Y72.369 E2.0477
G1 X105.132 Y73.903 E2.0937
G1 X105.152 Y75.038 E2.1277
G1 X105.112 Y76.578 E2.1738
G1 X104.988 Y78.152 E2.2211
G1 X104.782 Y79.717 E2.2683
G1 X104.494 Y81.269 E2.3156
G1 X104.126 Y82.805 E2.3629
G1 X103.677 Y84.318 E2.4101
G1 X103.151 Y85.806 E2.4574
G1 X102.562 Y87.226 E2.5034
G1 X102.083 Y88.255 E2.5373
G1 X101.373 Y89.619 E2.5834
G1 X100.592 Y90.943 E2.6294
G1 X99.974 Y91.895 E2.6634
G1 X99.105 Y93.113 E2.7082
G1 X98.407 Y94.007 E2.7421
G1 X97.408 Y95.176 E2.7881
G1 X96.322 Y96.322 E2.8354
G1 X95.176 Y97.408 E2.8827
G1 X93.976 Y98.434 E2.9299
G1 X92.724 Y99.394 E2.9772
G1 X91.423 Y100.289 E3.0244
G1 X90.077 Y101.113 E3.0717
G1 X88.689 Y101.867 E3.1189
G1 X87.301 Y102.529 E3.165
G1 X86.257 Y102.972 E3.1989
G1 X84.817 Y103.51 E3.2449
G1 X83.312 Y103.985 E3.2922
G1 X81.783 Y104.38 E3.3395
G1 X80.276 Y104.687 E3.3855
G1 X79.196 Y104.858 E3.4182
G1 X78.111 Y104.991 E3.4509
G1 X76.578 Y105.112 E3.497
G1 X75 Y105.153 E3.5442
G1 X73.422 Y105.112 E3.5915
G1 X71.889 Y104.991 E3.6375
G1 X70.763 Y104.853 E3.6715
G1 X69.206 Y104.592 E3.7187
G1 X67.235 Y104.137 E3.7793
G1 X65.682 Y103.677 E3.8278
G1 X64.194 Y103.151 E3.875
G1 X62.774 Y102.562 E3.921
G1 X61.745 Y102.083 E3.955
G1 X60.381 Y101.373 E4.001
G1 X59.056 Y100.592 E4.0471
G1 X58.105 Y99.974 E4.081
G1 X56.887 Y99.105 E4.1258
G1 X55.993 Y98.407 E4.1598
G1 X54.824 Y97.408 E4.2058
G1 X53.678 Y96.322 E4.2531
G1 X52.592 Y95.176 E4.3003
G1 X51.566 Y93.976 E4.3476
G1 X50.605 Y92.724 E4.3948
G1 X49.711 Y91.423 E4.4421
G1 X48.887 Y90.077 E4.4893
G1 X48.133 Y88.689 E4.5366
G1 X47.471 Y87.301 E4.5826
G1 X47.028 Y86.257 E4.6166
G1 X46.49 Y84.817 E4.6626
G1 X46.015 Y83.312 E4.7098
G1 X45.62 Y81.783 E4.7571
G1 X45.313 Y80.276 E4.8031
G1 X45.135 Y79.155 E4.8371
G1 X44.962 Y77.628 E4.8831
G1 X44.865 Y76.052 E4.9304
G1 X44.851 Y74.477 E4.9775
G1 X44.92 Y72.9 E5.0248
G1 X45.071 Y71.328 E5.072
G1 X45.298 Y69.808 E5.1181
G1 X45.515 Y68.694 E5.152
G1 X45.873 Y67.199 E5.1981
G1 X46.322 Y65.685 E5.2453
G1 X46.848 Y64.197 E5.2926
G1 X47.437 Y62.776 E5.3386
G1 X47.916 Y61.748 E5.3726
G1 X48.626 Y60.384 E5.4186
G1 X49.406 Y59.059 E5.4646
G1 X50.024 Y58.108 E5.4986
G1 X50.893 Y56.889 E5.5434
G1 X51.591 Y55.995 E5.5773
G1 X52.59 Y54.826 E5.6234
G1 X53.676 Y53.681 E5.6706
G0 X53.959 Y53.964 F4800
G92 E0
G1 X55.089 Y52.891 E0.0466 F1400
G1 X56.274 Y51.879 E0.0933
G1 X57.509 Y50.931 E0.1399
G1 X58.793 Y50.049 E0.1865
G1 X60.121 Y49.235 E0.2331
G1 X61.489 Y48.491 E0.2798
G1 X62.86 Y47.837 E0.3252
G1 X63.888 Y47.401 E0.3587
G1 X65.31 Y46.869 E0.4041
G1 X66.796 Y46.4 E0.4507
G1 X68.304 Y46.01 E0.4974
G1 X69.792 Y45.707 E0.5428
G1 X70.895 Y45.532 E0.5763
G1 X72.404 Y45.36 E0.6217
G1 X73.959 Y45.265 E0.6683
G1 X75.516 Y45.251 E0.715
G1 X77.072 Y45.319 E0.7616
G1 X78.623 Y45.468 E0.8082
G1 X80.124 Y45.693 E0.8537
G1 X81.221 Y45.906 E0.8871
G1 X82.698 Y46.26 E0.9326
G1 X84.191 Y46.702 E0.9792
G1 X85.659 Y47.222 E1.0258
G1 X87.062 Y47.803 E1.0713
G1 X88.075 Y48.275 E1.1047
G1 X89.422 Y48.976 E1.1502
G1 X90.73 Y49.746 E1.1956
G1 X91.667 Y50.355 E1.229
G1 X92.871 Y51.213 E1.2733
G1 X93.752 Y51.901 E1.3068
G1 X94.906 Y52.887 E1.3522
G1 X96.036 Y53.959 E1.3988
G1 X97.109 Y55.089 E1.4455
G1 X98.121 Y56.274 E1.4921
G1 X99.069 Y57.509 E1.5387
G1 X99.951 Y58.793 E1.5854
G1 X100.765 Y60.121 E1.632
G1 X101.509 Y61.489 E1.6786
G1 X102.163 Y62.86 E1.7241
G1 X102.599 Y63.888 E1.7575
G1 X103.131 Y65.31 E1.803
G1 X103.6 Y66.796 E1.8496
G1 X103.99 Y68.304 E1.8962
G1 X104.293 Y69.792 E1.9417
G1 X104.468 Y70.895 E1.9751
G1 X104.64 Y72.404 E2.0205
G1 X104.732 Y73.919 E2.066
G1 X104.752 Y75.036 E2.0994
G1 X104.712 Y76.557 E2.145
G1 X104.59 Y78.11 E2.1916
G1 X104.387 Y79.654 E2.2382
G1 X104.103 Y81.186 E2.2849
G1 X103.739 Y82.701 E2.3315
G1 X103.297 Y84.194 E2.3781
G1 X102.777 Y85.662 E2.4247
G1 X102.196 Y87.065 E2.4702
G1 X101.724 Y88.078 E2.5036
G1 X101.023 Y89.425 E2.5491
G1 X100.252 Y90.733 E2.5945
G1 X99.644 Y91.67 E2.628
G1 X98.785 Y92.874 E2.6723
G1 X98.097 Y93.754 E2.7057
G1 X97.111 Y94.909 E2.7511
G1 X96.039 Y96.039 E2.7978
G1 X94.909 Y97.111 E2.8444
G1 X93.724 Y98.123 E2.891
G1 X92.488 Y99.071 E2.9377
G1 X91.205 Y99.953 E2.9843
G1 X89.877 Y100.767 E3.0309
G1 X88.508 Y101.51 E3.0775
G1 X87.137 Y102.164 E3.123
G1 X86.109 Y102.6 E3.1564
G1 X84.687 Y103.132 E3.2019
G1 X83.201 Y103.6 E3.2485
G1 X81.693 Y103.991 E3.2951
G1 X80.205 Y104.293 E3.3406
G1 X79.14 Y104.462 E3.3729
G1 X78.071 Y104.593 E3.4051
G1 X76.557 Y104.712 E3.4506
G1 X75 Y104.753 E3.4972
G1 X73.443 Y104.712 E3.5438
G1 X71.929 Y104.593 E3.5893
G1 X70.821 Y104.457 E3.6227
G1 X69.284 Y104.2 E3.6693
G1 X67.337 Y103.75 E3.7292
G1 X65.806 Y103.297 E3.777
G1 X64.338 Y102.777 E3.8236
G1 X62.935 Y102.196 E3.869
G1 X61.922 Y101.724 E3.9025
G1 X60.575 Y101.023 E3.9479
G1 X59.267 Y100.252 E3.9934
G1 X58.33 Y99.644 E4.0268
G1 X57.126 Y98.785 E4.0711
G1 X56.246 Y98.097 E4.1045
G1 X55.091 Y97.111 E4.15
G1 X53.961 Y96.039 E4.1966
G1 X52.889 Y94.909 E4.2432
G1 X51.877 Y93.724 E4.2899
G1 X50.929 Y92.488 E4.3365
G1 X50.047 Y91.205 E4.3831
G1 X49.233 Y89.877 E4.4298
G1 X48.49 Y88.508 E4.4764
G1 X47.836 Y87.137 E4.5218
G1 X47.4 Y86.109 E4.5553
G1 X46.868 Y84.687 E4.6007
G1 X46.4 Y83.201 E4.6473
G1 X46.009 Y81.693 E4.694
G1 X45.707 Y80.205 E4.7394
G1 X45.532 Y79.101 E4.7729
G1 X45.36 Y77.593 E4.8183
G1 X45.265 Y76.039 E4.8649
G1 X45.251 Y74.484 E4.9115
G1 X45.319 Y72.928 E4.9581
G1 X45.468 Y71.377 E5.0047
G1 X45.693 Y69.876 E5.0502
G1 X45.906 Y68.779 E5.0836
G1 X46.26 Y67.302 E5.1291
G1 X46.702 Y65.809 E5.1757
G1 X47.222 Y64.341 E5.2223
G1 X47.803 Y62.938 E5.2678
G1 X48.275 Y61.925 E5.3012
G1 X48.976 Y60.578 E5.3467
G1 X49.746 Y59.27 E5.3921
G1 X50.355 Y58.333 E5.4256
G1 X51.213 Y57.129 E5.4698
G1 X51.901 Y56.248 E5.5033
G1 X52.887 Y55.094 E5.5487
G1 X53.959 Y53.964 E5.5954
G0 X54.242 Y54.246 F4800
G92 E0
G1 X55.357 Y53.188 E0.046 F1400
G1 X56.526 Y52.19 E0.092
G1 X57.744 Y51.255 E0.138
G1 X59.011 Y50.384 E0.184
G1 X60.321 Y49.581 E0.23
G1 X61.671 Y48.848 E0.276
G1 X63.024 Y48.202 E0.3209
G1 X64.037 Y47.772 E0.3538
G1 X65.441 Y47.247 E0.3987
G1 X66.906 Y46.785 E0.4447
G1 X68.394 Y46.4 E0.4907
G1 X69.863 Y46.101 E0.5356
G1 X70.949 Y45.929 E0.5685
G1 X72.439 Y45.759 E0.6133
G1 X73.973 Y45.665 E0.6593
G1 X75.509 Y45.652 E0.7053
G1 X77.044 Y45.718 E0.7513
G1 X78.574 Y45.866 E0.7974
G1 X80.057 Y46.087 E0.8422
G1 X81.136 Y46.297 E0.8751
G1 X82.594 Y46.646 E0.92
G1 X84.068 Y47.083 E0.966
G1 X85.516 Y47.596 E1.012
G1 X86.901 Y48.169 E1.0569
G1 X87.898 Y48.634 E1.0898
G1 X89.228 Y49.326 E1.1347
G1 X90.52 Y50.087 E1.1796
G1 X91.442 Y50.685 E1.2125
G1 X92.632 Y51.534 E1.2562
G1 X93.499 Y52.211 E1.2891
G1 X94.639 Y53.184 E1.334
G1 X95.754 Y54.242 E1.38
G1 X96.812 Y55.357 E1.426
G1 X97.81 Y56.526 E1.472
G1 X98.745 Y57.744 E1.518
G1 X99.616 Y59.011 E1.564
G1 X100.419 Y60.321 E1.61
G1 X101.152 Y61.671 E1.656
G1 X101.798 Y63.024 E1.7009
G1 X102.228 Y64.037 E1.7338
G1 X102.753 Y65.441 E1.7787
G1 X103.215 Y66.906 E1.8247
G1 X103.6 Y68.394 E1.8707
G1 X103.899 Y69.863 E1.9156
G1 X104.071 Y70.949 E1.9485
G1 X104.241 Y72.439 E1.9934
G1 X104.333 Y73.935 E2.0382
G1 X104.352 Y75.035 E2.0712
G1 X104.313 Y76.536 E2.1161
G1 X104.192 Y78.069 E2.1621
G1 X103.992 Y79.591 E2.2081
G1 X103.712 Y81.103 E2.2541
